; generated by PrusaSlicer 2.3.0+win64 on 2021-03-24 at 18:07:34 UTC


;
;

;
;
; 

; external perimeters extrusion width = 0.40mm
; perimeters extrusion width = 0.40mm
; infill extrusion width = 0.45mm
; solid infill extrusion width = 0.45mm
; top infill extrusion width = 0.40mm
; support material extrusion width = 0.30mm
; first layer extrusion width = 0.42mm

M73 P0 R41
M201 X1250 Y1250 Z400 E5000 ; sets maximum accelerations, mm/sec^2
M203 X180 Y180 Z12 E80 ; sets maximum feedrates, mm/sec
M204 P1250 R1250 T1250 ; sets acceleration (P, T) and retract acceleration (R), mm/sec^2
M205 X8.00 Y8.00 Z2.00 E10.00 ; sets the jerk limits, mm/sec
M205 S0 T0 ; sets the minimum extruding and travel feed rate, mm/sec
M107
;TYPE:Custom
G90 ; use absolute coordinates
M83 ; extruder relative mode
M104 S170 ; set extruder temp for bed leveling
M140 S60 ; set bed temp
M109 R170 ; wait for bed leveling temp
M190 S60 ; wait for bed temp
G28 ; home all without mesh bed level
G29 ; mesh bed leveling 
M104 S215 ; set extruder temp
G92 E0.0
G1 Y-2.0 X179 F2400
G1 Z3 F720
M109 S215 ; wait for extruder temp

; intro line
G1 X170 F1000
G1 Z0.2 F720
G1 X110.0 E8.0 F900
G1 X40.0 E10.0 F700
G92 E0.0

M221 S95 ; set flow
G21 ; set units to millimeters
G90 ; use absolute coordinates
M83 ; use relative distances for extrusion
M900 K0.2 ; Filament gcode LA 1.5
; ; Filament gcode LA 1.0
;LAYER_CHANGE
;Z:0.2
;HEIGHT:0.2
;BEFORE_LAYER_CHANGE
G92 E0.0
;0.2


G1 Z0.200 F9000.000
;AFTER_LAYER_CHANGE
;0.2
G1 E-3.20000 F4200.000
G1 Z0.400 F9000.000
G1 X84.277 Y84.364
G1 Z0.200
G1 E3.20000 F2400.000
M204 S800
;TYPE:Skirt
;WIDTH:0.42
G1 F1200.000
G1 X85.370 Y83.438 E0.04492
G1 X86.826 Y82.623 E0.05231
G1 X88.473 Y82.118 E0.05402
G1 X90.101 Y81.969 E0.05124
G1 X91.586 Y82.127 E0.04683
G1 X93.110 Y82.596 E0.05000
G1 X94.398 Y83.280 E0.04570
G1 X95.574 Y84.220 E0.04720
G1 X96.601 Y85.430 E0.04979
G1 X97.427 Y86.948 E0.05418
G1 X97.897 Y88.543 E0.05214
G1 X98.030 Y89.995 E0.04571
G1 X97.879 Y91.554 E0.04911
G1 X97.460 Y92.972 E0.04636
G1 X96.743 Y94.361 E0.04900
G1 X95.591 Y95.764 E0.05691
G1 X94.433 Y96.696 E0.04662
G1 X93.059 Y97.427 E0.04879
G1 X91.563 Y97.878 E0.04901
G1 X90.118 Y98.031 E0.04554
G1 X88.582 Y97.906 E0.04832
G1 X87.042 Y97.465 E0.05022
G1 X85.539 Y96.679 E0.05318
G1 X84.323 Y95.682 E0.04931
G1 X83.367 Y94.529 E0.04697
G1 X82.590 Y93.100 E0.05101
G1 X82.151 Y91.705 E0.04584
G1 X81.971 Y90.071 E0.05156
G1 X82.136 Y88.367 E0.05368
G1 X82.563 Y86.968 E0.04587
G1 X83.333 Y85.521 E0.05138
G1 X84.239 Y84.410 E0.04495
M204 S1250
G1 X84.530 Y84.647 F9000.000
M204 S800
G1 F1200.000
G1 X85.582 Y83.750 E0.04336
G1 X86.970 Y82.972 E0.04988
G1 X88.545 Y82.488 E0.05166
G1 X90.101 Y82.346 E0.04900
G1 X91.509 Y82.496 E0.04442
G1 X92.968 Y82.946 E0.04784
G1 X94.188 Y83.594 E0.04334
G1 X95.307 Y84.486 E0.04487
G1 X96.289 Y85.641 E0.04753
G1 X97.079 Y87.093 E0.05183
G1 X97.527 Y88.614 E0.04971
G1 X97.653 Y89.997 E0.04355
G1 X97.509 Y91.480 E0.04671
G1 X97.113 Y92.826 E0.04398
G1 X96.430 Y94.150 E0.04671
G1 X95.322 Y95.500 E0.05477
G1 X94.224 Y96.382 E0.04416
G1 X92.912 Y97.079 E0.04658
G1 X91.486 Y97.509 E0.04671
G1 X90.115 Y97.654 E0.04321
G1 X88.651 Y97.535 E0.04607
G1 X87.183 Y97.115 E0.04785
G1 X85.748 Y96.364 E0.05078
G1 X84.586 Y95.413 E0.04709
G1 X83.679 Y94.319 E0.04454
G1 X82.938 Y92.955 E0.04869
G1 X82.520 Y91.629 E0.04359
G1 X82.348 Y90.067 E0.04925
G1 X82.506 Y88.441 E0.05124
G1 X82.913 Y87.109 E0.04364
G1 X83.647 Y85.729 E0.04903
G1 X84.492 Y84.694 E0.04189
M204 S1250
G1 X84.783 Y84.931 F9000.000
M204 S800
G1 F1200.000
G1 X85.791 Y84.063 E0.04171
G1 X87.113 Y83.321 E0.04755
G1 X88.620 Y82.857 E0.04942
G1 X90.101 Y82.724 E0.04663
G1 X91.433 Y82.866 E0.04201
G1 X92.822 Y83.293 E0.04555
G1 X93.980 Y83.908 E0.04111
G1 X95.038 Y84.751 E0.04242
G1 X95.976 Y85.853 E0.04538
G1 X96.731 Y87.239 E0.04948
G1 X97.157 Y88.689 E0.04740
G1 X97.276 Y90.000 E0.04127
G1 X97.138 Y91.410 E0.04444
G1 X96.763 Y92.683 E0.04161
G1 X96.115 Y93.943 E0.04441
G1 X95.053 Y95.236 E0.05248
G1 X94.015 Y96.068 E0.04170
G1 X92.769 Y96.731 E0.04426
G1 X91.412 Y97.139 E0.04442
G1 X90.115 Y97.277 E0.04090
G1 X88.719 Y97.164 E0.04394
G1 X87.324 Y96.765 E0.04548
G1 X85.953 Y96.048 E0.04852
G1 X84.852 Y95.145 E0.04463
G1 X83.992 Y94.108 E0.04225
G1 X83.286 Y92.809 E0.04637
G1 X82.890 Y91.555 E0.04123
G1 X82.725 Y90.071 E0.04681
G1 X82.877 Y88.510 E0.04918
G1 X83.262 Y87.251 E0.04129
G1 X83.962 Y85.937 E0.04667
G1 X84.745 Y84.978 E0.03882
M204 S1250
; printing object KING.stl id:0 copy 0
G1 E-2.24000 F4200.000
;WIPE_START
G1 F7200.000
G1 X85.791 Y84.063 E-0.77002
G1 X86.014 Y83.938 E-0.14198
;WIPE_END
G1 E-0.04800 F4200.000
G1 Z0.400 F9000.000
G1 X87.350 Y87.437
G1 Z0.200
G1 E3.20000 F2400.000
M204 S800
;TYPE:Perimeter
G1 F1200.000
G1 X87.803 Y87.039 E0.01889
G1 X88.053 Y86.870 E0.00946
G1 X88.588 Y86.595 E0.01888
G1 X89.162 Y86.410 E0.01889
G1 X89.458 Y86.354 E0.00945
G1 X90.059 Y86.315 E0.01889
G1 X90.664 Y86.375 E0.01903
G1 X91.241 Y86.530 E0.01875
G1 X91.790 Y86.778 E0.01890
G1 X92.291 Y87.113 E0.01889
G1 X92.519 Y87.310 E0.00945
G1 X92.924 Y87.756 E0.01889
G1 X93.250 Y88.263 E0.01889
G1 X93.490 Y88.815 E0.01889
G1 X93.575 Y89.105 E0.00945
G1 X93.673 Y89.699 E0.01888
G1 X93.676 Y90.272 E0.01797
G1 X93.596 Y90.808 E0.01700
M73 P1 R41
G1 X93.527 Y91.071 E0.00851
G1 X93.439 Y91.327 E0.00851
G1 X93.207 Y91.818 E0.01701
G1 X93.064 Y92.049 E0.00851
G1 X92.731 Y92.476 E0.01701
G1 X92.541 Y92.670 E0.00851
G1 X92.122 Y93.015 E0.01701
G1 X91.657 Y93.293 E0.01701
G1 X91.156 Y93.501 E0.01701
G1 X90.895 Y93.577 E0.00851
G1 X90.361 Y93.669 E0.01701
G1 X90.089 Y93.686 E0.00852
G1 X89.548 Y93.659 E0.01700
G1 X89.016 Y93.553 E0.01701
G1 X88.757 Y93.471 E0.00851
G1 X88.261 Y93.252 E0.01701
G1 X87.803 Y92.962 E0.01701
G1 X87.591 Y92.792 E0.00851
G1 X87.188 Y92.385 E0.01795
G1 X87.003 Y92.148 E0.00945
G1 X86.715 Y91.671 E0.01746
G1 X86.569 Y91.351 E0.01103
G1 X86.471 Y91.071 E0.00931
G1 X86.344 Y90.482 E0.01889
G1 X86.317 Y90.181 E0.00947
G1 X86.337 Y89.579 E0.01888
G1 X86.384 Y89.281 E0.00945
G1 X86.549 Y88.702 E0.01889
G1 X86.807 Y88.157 E0.01889
G1 X86.968 Y87.902 E0.00945
G1 X87.310 Y87.482 E0.01701
M204 S1250
G1 X87.029 Y87.231 F9000.000
M204 S800
G1 F1200.000
G1 X87.320 Y86.945 E0.01278
G1 X87.578 Y86.736 E0.01042
G1 X87.853 Y86.549 E0.01043
G1 X88.142 Y86.386 E0.01041
G1 X88.444 Y86.246 E0.01042
G1 X88.756 Y86.131 E0.01042
G1 X89.076 Y86.043 E0.01042
G1 X89.403 Y85.981 E0.01042
G1 X89.733 Y85.945 E0.01042
G1 X90.066 Y85.937 E0.01042
G1 X90.350 Y85.953 E0.00893
G1 X90.729 Y86.003 E0.01199
G1 X91.051 Y86.075 E0.01033
G1 X91.368 Y86.174 E0.01042
G1 X91.676 Y86.299 E0.01042
G1 X91.973 Y86.448 E0.01043
G1 X92.257 Y86.622 E0.01042
G1 X92.525 Y86.817 E0.01042
G1 X92.777 Y87.034 E0.01042
G1 X93.010 Y87.271 E0.01042
G1 X93.223 Y87.527 E0.01042
G1 X93.415 Y87.798 E0.01042
G1 X93.583 Y88.085 E0.01042
G1 X93.728 Y88.384 E0.01042
G1 X93.847 Y88.694 E0.01042
G1 X93.941 Y89.013 E0.01042
G1 X94.009 Y89.338 E0.01042
G1 X94.049 Y89.668 E0.01042
G1 X94.052 Y90.299 E0.01979
G1 X93.964 Y90.891 E0.01875
G1 X93.888 Y91.180 E0.00938
G1 X93.791 Y91.463 E0.00938
G1 X93.535 Y92.004 E0.01875
G1 X93.378 Y92.258 E0.00938
G1 X93.010 Y92.730 E0.01875
G1 X92.801 Y92.944 E0.00938
G1 X92.339 Y93.323 E0.01875
G1 X91.826 Y93.630 E0.01875
G1 X91.274 Y93.859 E0.01875
G1 X90.987 Y93.943 E0.00938
G1 X90.397 Y94.045 E0.01875
G1 X90.099 Y94.063 E0.00939
G1 X89.502 Y94.034 E0.01874
G1 X88.915 Y93.917 E0.01875
G1 X88.630 Y93.827 E0.00938
G1 X88.083 Y93.584 E0.01875
G1 X87.825 Y93.434 E0.00938
G1 X87.345 Y93.078 E0.01875
G1 X86.900 Y92.630 E0.01979
G1 X86.696 Y92.367 E0.01042
G1 X86.514 Y92.090 E0.01042
G1 X86.377 Y91.839 E0.00893
G1 X86.219 Y91.491 E0.01199
G1 X86.110 Y91.180 E0.01033
G1 X86.027 Y90.858 E0.01042
G1 X85.970 Y90.531 E0.01042
G1 X85.940 Y90.199 E0.01044
G1 X85.938 Y89.867 E0.01041
G1 X85.962 Y89.536 E0.01042
G1 X86.013 Y89.208 E0.01042
G1 X86.092 Y88.885 E0.01042
G1 X86.196 Y88.569 E0.01042
G1 X86.326 Y88.263 E0.01042
G1 X86.480 Y87.969 E0.01042
G1 X86.658 Y87.688 E0.01042
G1 X86.989 Y87.275 E0.01658
M204 S1250
G1 X86.707 Y87.024 F9000.000
M204 S800
;TYPE:External perimeter
G1 F1200.000
G1 X87.071 Y86.661 E0.01611
G1 X87.354 Y86.433 E0.01139
G1 X87.654 Y86.229 E0.01140
G1 X87.970 Y86.050 E0.01138
G1 X88.300 Y85.897 E0.01139
G1 X88.641 Y85.772 E0.01139
G1 X88.991 Y85.675 E0.01139
G1 X89.347 Y85.607 E0.01139
G1 X89.709 Y85.569 E0.01139
G1 X90.072 Y85.560 E0.01139
G1 X90.385 Y85.578 E0.00984
G1 X90.795 Y85.631 E0.01296
G1 X91.149 Y85.711 E0.01136
G1 X91.495 Y85.819 E0.01139
G1 X91.832 Y85.955 E0.01139
G1 X92.157 Y86.119 E0.01139
G1 X92.467 Y86.308 E0.01138
G1 X92.760 Y86.522 E0.01139
G1 X93.035 Y86.759 E0.01139
G1 X93.290 Y87.018 E0.01139
G1 X93.523 Y87.297 E0.01139
G1 X93.732 Y87.594 E0.01139
G1 X93.916 Y87.907 E0.01139
G1 X94.074 Y88.234 E0.01139
G1 X94.205 Y88.573 E0.01139
G1 X94.307 Y88.921 E0.01139
G1 X94.381 Y89.277 E0.01139
G1 X94.425 Y89.638 E0.01140
G1 X94.440 Y90.001 E0.01141
G1 X94.428 Y90.327 E0.01021
G1 X94.392 Y90.652 E0.01026
G1 X94.249 Y91.290 E0.02049
G1 X94.143 Y91.599 E0.01025
G1 X93.863 Y92.190 E0.02049
G1 X93.500 Y92.733 E0.02049
G1 X93.290 Y92.983 E0.01025
G1 X92.817 Y93.434 E0.02049
G1 X92.556 Y93.632 E0.01025
G1 X91.996 Y93.967 E0.02049
G1 X91.392 Y94.218 E0.02049
G1 X91.078 Y94.309 E0.01025
G1 X90.434 Y94.420 E0.02049
G1 X90.108 Y94.440 E0.01026
G1 X89.455 Y94.408 E0.02048
G1 X88.815 Y94.281 E0.02049
G1 X88.503 Y94.182 E0.01025
G1 X87.906 Y93.917 E0.02049
G1 X87.623 Y93.753 E0.01025
G1 X87.098 Y93.363 E0.02049
G1 X86.859 Y93.141 E0.01022
G1 X86.613 Y92.874 E0.01142
G1 X86.389 Y92.587 E0.01139
G1 X86.190 Y92.284 E0.01139
G1 X86.040 Y92.008 E0.00984
G1 X85.868 Y91.632 E0.01296
G1 X85.749 Y91.290 E0.01136
G1 X85.658 Y90.938 E0.01139
G1 X85.596 Y90.580 E0.01139
G1 X85.563 Y90.218 E0.01141
G1 X85.560 Y89.855 E0.01137
G1 X85.587 Y89.493 E0.01139
G1 X85.643 Y89.134 E0.01139
G1 X85.729 Y88.781 E0.01139
G1 X85.843 Y88.436 E0.01139
G1 X85.984 Y88.102 E0.01139
G1 X86.153 Y87.780 E0.01139
G1 X86.347 Y87.473 E0.01139
G1 X86.667 Y87.069 E0.01616
M204 S1250
G1 X87.098 Y87.108 F9000.000
G1 E-2.24000 F4200.000
;WIPE_START
G1 F7200.000
G1 X87.071 Y86.661 E-0.31790
G1 X87.354 Y86.433 E-0.20129
G1 X87.654 Y86.229 E-0.20149
G1 X87.955 Y86.059 E-0.19131
;WIPE_END
G1 E-0.04800 F4200.000
G1 Z0.400 F9000.000
G1 X90.791 Y86.519
G1 Z0.200
G1 E3.20000 F2400.000
M204 S800
;TYPE:Solid infill
;WIDTH:0.420277
G1 F1200.000
G1 X93.236 Y88.964 E0.10849
G1 X93.358 Y89.452 E0.01578
G1 X93.381 Y89.643 E0.00606
G1 X90.358 Y86.620 E0.13416
G1 X89.810 Y86.605 E0.01721
G1 X93.393 Y90.188 E0.15898
G1 X93.332 Y90.661 E0.01497
G1 X89.342 Y86.671 E0.17705
G1 X88.914 Y86.777 E0.01384
G1 X93.223 Y91.086 E0.19122
G1 X93.063 Y91.460 E0.01276
G1 X88.540 Y86.937 E0.20069
G1 X88.190 Y87.120 E0.01241
G1 X92.875 Y91.805 E0.20790
G1 X92.682 Y92.094 E0.01090
G1 X92.657 Y92.121 E0.00115
G1 X87.883 Y87.347 E0.21184
G1 X87.756 Y87.442 E0.00499
G1 X87.603 Y87.600 E0.00690
G1 X92.404 Y92.401 E0.21304
G1 X92.125 Y92.657 E0.01185
G1 X87.345 Y87.876 E0.21212
G1 X87.127 Y88.192 E0.01203
G1 X91.808 Y92.873 E0.20773
G1 X91.467 Y93.066 E0.01229
G1 X86.931 Y88.529 E0.20129
G1 X86.782 Y88.915 E0.01295
G1 X91.090 Y93.222 E0.19114
G1 X90.831 Y93.301 E0.00848
G1 X90.664 Y93.330 E0.00534
G1 X86.664 Y89.330 E0.17749
G1 X86.608 Y89.807 E0.01509
G1 X90.191 Y93.391 E0.15900
G1 X89.832 Y93.399 E0.01126
G1 X89.643 Y93.376 E0.00599
G1 X86.621 Y90.355 E0.13407
G1 X86.672 Y90.713 E0.01137
G1 X86.769 Y91.036 E0.01060
G1 X88.978 Y93.245 E0.09799
G1 X88.395 Y93.002 E0.01981
G1 X87.968 Y92.731 E0.01587
G1 X87.781 Y92.582 E0.00750
G1 X86.836 Y91.636 E0.04194
M204 S1250
; stop printing object KING.stl id:0 copy 0
M106 S84.15
;LAYER_CHANGE
;Z:0.25
;HEIGHT:0.05
;BEFORE_LAYER_CHANGE
G92 E0.0
;0.25


G1 Z0.250 F9000.000
;AFTER_LAYER_CHANGE
;0.25
M104 S210 ; set temperature
G1 E-3.20000 F4200.000
G1 Z0.450 F9000.000
G1 X83.367 Y94.529
G1 Z0.250
G1 E3.20000 F2400.000
;TYPE:Skirt
;WIDTH:0.42
G1 F1713
G1 X82.590 Y93.100 E0.01384
G1 X82.151 Y91.705 E0.01244
G1 X81.971 Y90.071 E0.01399
G1 X82.136 Y88.367 E0.01456
G1 X82.563 Y86.968 E0.01245
G1 X83.333 Y85.521 E0.01394
G1 X84.277 Y84.364 E0.01271
G1 X85.370 Y83.438 E0.01219
G1 X86.826 Y82.623 E0.01420
G1 X88.473 Y82.118 E0.01466
G1 X90.101 Y81.969 E0.01390
G1 X91.586 Y82.127 E0.01271
G1 X93.110 Y82.596 E0.01357
G1 X94.398 Y83.280 E0.01240
G1 X95.574 Y84.220 E0.01281
G1 X96.601 Y85.430 E0.01351
G1 X97.427 Y86.948 E0.01470
G1 X97.897 Y88.543 E0.01415
G1 X98.030 Y89.995 E0.01240
G1 X97.879 Y91.554 E0.01333
G1 X97.460 Y92.972 E0.01258
G1 X96.743 Y94.361 E0.01330
G1 X95.591 Y95.764 E0.01544
G1 X94.433 Y96.696 E0.01265
G1 X93.059 Y97.427 E0.01324
G1 X91.563 Y97.878 E0.01330
G1 X90.118 Y98.031 E0.01236
G1 X88.582 Y97.906 E0.01311
G1 X87.042 Y97.465 E0.01363
G1 X85.539 Y96.679 E0.01443
G1 X84.323 Y95.682 E0.01338
G1 X83.405 Y94.576 E0.01223
G1 X83.694 Y94.336 F9000.000
G1 F1713
G1 X82.938 Y92.955 E0.01340
G1 X82.520 Y91.629 E0.01183
G1 X82.348 Y90.067 E0.01336
G1 X82.506 Y88.441 E0.01390
G1 X82.913 Y87.109 E0.01184
G1 X83.647 Y85.729 E0.01330
G1 X84.542 Y84.632 E0.01205
G1 X85.582 Y83.750 E0.01160
G1 X86.970 Y82.972 E0.01353
G1 X88.545 Y82.488 E0.01402
G1 X90.101 Y82.346 E0.01330
G1 X91.509 Y82.496 E0.01205
G1 X92.968 Y82.946 E0.01298
G1 X94.188 Y83.594 E0.01176
G1 X95.307 Y84.486 E0.01217
G1 X96.289 Y85.641 E0.01290
G1 X97.079 Y87.093 E0.01406
G1 X97.527 Y88.614 E0.01349
G1 X97.653 Y89.997 E0.01182
G1 X97.509 Y91.480 E0.01268
G1 X97.113 Y92.826 E0.01193
G1 X96.430 Y94.150 E0.01267
G1 X95.322 Y95.500 E0.01486
G1 X94.224 Y96.382 E0.01198
G1 X92.912 Y97.079 E0.01264
G1 X91.486 Y97.509 E0.01268
G1 X90.115 Y97.654 E0.01173
G1 X88.651 Y97.535 E0.01250
G1 X87.183 Y97.115 E0.01298
G1 X85.748 Y96.364 E0.01378
G1 X84.586 Y95.413 E0.01278
G1 X83.732 Y94.382 E0.01139
G1 X84.021 Y94.143 F9000.000
G1 F1713
G1 X83.286 Y92.809 E0.01296
G1 X82.890 Y91.555 E0.01119
G1 X82.725 Y90.071 E0.01270
G1 X82.877 Y88.510 E0.01335
G1 X83.262 Y87.251 E0.01120
G1 X83.962 Y85.937 E0.01266
G1 X84.811 Y84.897 E0.01142
G1 X85.791 Y84.063 E0.01095
G1 X87.113 Y83.321 E0.01290
M73 P1 R40
G1 X88.620 Y82.857 E0.01341
G1 X90.101 Y82.724 E0.01265
G1 X91.433 Y82.866 E0.01140
G1 X92.822 Y83.293 E0.01236
G1 X93.980 Y83.908 E0.01116
G1 X95.038 Y84.751 E0.01151
G1 X95.976 Y85.853 E0.01231
G1 X96.731 Y87.239 E0.01342
G1 X97.157 Y88.689 E0.01286
G1 X97.276 Y90.000 E0.01120
G1 X97.138 Y91.410 E0.01206
G1 X96.763 Y92.683 E0.01129
G1 X96.115 Y93.943 E0.01205
G1 X95.053 Y95.236 E0.01424
G1 X94.015 Y96.068 E0.01131
G1 X92.769 Y96.731 E0.01201
G1 X91.412 Y97.139 E0.01205
G1 X90.115 Y97.277 E0.01110
G1 X88.719 Y97.164 E0.01192
G1 X87.324 Y96.765 E0.01234
G1 X85.953 Y96.048 E0.01317
G1 X84.852 Y95.145 E0.01211
G1 X84.059 Y94.189 E0.01057
; printing object KING.stl id:0 copy 0
G1 E-2.24000 F4200.000
;WIPE_START
G1 F7200.000
G1 X83.286 Y92.809 E-0.87667
G1 X83.266 Y92.748 E-0.03533
;WIPE_END
G1 E-0.04800 F4200.000
G1 Z0.450 F9000.000
G1 X86.766 Y92.206
G1 Z0.250
G1 E3.20000 F2400.000
M204 S300
;TYPE:Perimeter
;WIDTH:0.4
G1 F900.000
G1 X86.583 Y91.910 E0.00282
G1 X86.428 Y91.599 E0.00282
G1 X86.301 Y91.278 E0.00279
G1 X86.182 Y90.865 E0.00348
G1 X86.121 Y90.528 E0.00277
G1 X86.089 Y90.182 E0.00282
G1 X86.089 Y89.834 E0.00282
G1 X86.119 Y89.487 E0.00282
G1 X86.180 Y89.145 E0.00282
G1 X86.270 Y88.813 E0.00278
G1 X86.423 Y88.411 E0.00348
G1 X86.576 Y88.103 E0.00278
G1 X86.758 Y87.806 E0.00282
G1 X86.916 Y87.593 E0.00214
G1 X87.202 Y87.263 E0.00354
G1 X87.451 Y87.030 E0.00276
G1 X87.725 Y86.815 E0.00282
G1 X88.013 Y86.628 E0.00278
G1 X88.395 Y86.431 E0.00348
G1 X88.715 Y86.304 E0.00278
G1 X89.048 Y86.204 E0.00282
G1 X89.389 Y86.134 E0.00282
G1 X89.728 Y86.096 E0.00276
G1 X90.165 Y86.092 E0.00354
G1 X90.429 Y86.110 E0.00214
G1 X90.773 Y86.164 E0.00282
G1 X91.111 Y86.248 E0.00282
G1 X91.440 Y86.362 E0.00282
G1 X91.754 Y86.503 E0.00279
G1 X92.128 Y86.716 E0.00348
G1 X92.407 Y86.915 E0.00277
G1 X92.672 Y87.141 E0.00282
G1 X92.915 Y87.389 E0.00282
G1 X93.135 Y87.659 E0.00282
G1 X93.331 Y87.947 E0.00282
