; generated by PrusaSlicer 2.3.0+win64 on 2021-03-24 at 18:08:00 UTC


;
;

;
;
; 

; external perimeters extrusion width = 0.40mm
; perimeters extrusion width = 0.40mm
; infill extrusion width = 0.45mm
; solid infill extrusion width = 0.45mm
; top infill extrusion width = 0.40mm
; support material extrusion width = 0.30mm
; first layer extrusion width = 0.42mm

M73 P0 R41
M201 X1250 Y1250 Z400 E5000 ; sets maximum accelerations, mm/sec^2
M203 X180 Y180 Z12 E80 ; sets maximum feedrates, mm/sec
M204 P1250 R1250 T1250 ; sets acceleration (P, T) and retract acceleration (R), mm/sec^2
M205 X8.00 Y8.00 Z2.00 E10.00 ; sets the jerk limits, mm/sec
M205 S0 T0 ; sets the minimum extruding and travel feed rate, mm/sec
M107
;TYPE:Custom
G90 ; use absolute coordinates
M83 ; extruder relative mode
M104 S170 ; set extruder temp for bed leveling
M140 S60 ; set bed temp
M109 R170 ; wait for bed leveling temp
M190 S60 ; wait for bed temp
G28 ; home all without mesh bed level
G29 ; mesh bed leveling 
M104 S215 ; set extruder temp
G92 E0.0
G1 Y-2.0 X179 F2400
G1 Z3 F720
M109 S215 ; wait for extruder temp

; intro line
G1 X170 F1000
G1 Z0.2 F720
G1 X110.0 E8.0 F900
G1 X40.0 E10.0 F700
G92 E0.0

M221 S95 ; set flow
G21 ; set units to millimeters
G90 ; use absolute coordinates
M83 ; use relative distances for extrusion
M900 K0.2 ; Filament gcode LA 1.5
; ; Filament gcode LA 1.0
;LAYER_CHANGE
;Z:0.2
;HEIGHT:0.2
;BEFORE_LAYER_CHANGE
G92 E0.0
;0.2


G1 Z0.200 F9000.000
;AFTER_LAYER_CHANGE
;0.2
G1 E-3.20000 F4200.000
G1 Z0.400 F9000.000
G1 X85.578 Y84.697
G1 Z0.200
G1 E3.20000 F2400.000
M204 S800
;TYPE:Skirt
;WIDTH:0.42
G1 F1200.000
G1 X86.856 Y83.664 E0.05153
G1 X88.051 Y83.040 E0.04227
G1 X89.330 Y82.643 E0.04199
G1 X91.000 Y82.472 E0.05262
G1 X92.362 Y82.611 E0.04295
G1 X93.923 Y83.097 E0.05125
G1 X95.103 Y83.740 E0.04213
G1 X96.152 Y84.587 E0.04227
G1 X97.193 Y85.836 E0.05098
G1 X97.839 Y87.029 E0.04254
G1 X98.327 Y88.652 E0.05316
G1 X98.450 Y89.994 E0.04226
G1 X98.287 Y91.554 E0.04917
G1 X97.911 Y92.798 E0.04074
G1 X97.182 Y94.182 E0.04904
G1 X96.186 Y95.382 E0.04890
G1 X95.182 Y96.207 E0.04074
G1 X93.808 Y96.954 E0.04904
G1 X92.309 Y97.399 E0.04904
G1 X91.038 Y97.528 E0.04006
G1 X89.458 Y97.386 E0.04972
G1 X87.964 Y96.923 E0.04904
G1 X86.814 Y96.309 E0.04088
G1 X85.596 Y95.322 E0.04918
G1 X84.731 Y94.282 E0.04241
G1 X83.928 Y92.789 E0.05316
G1 X83.542 Y91.488 E0.04254
G1 X83.395 Y89.865 E0.05111
G1 X83.538 Y88.529 E0.04213
G1 X83.922 Y87.232 E0.04240
G1 X84.684 Y85.786 E0.05125
G1 X85.540 Y84.744 E0.04230
M204 S1250
G1 X85.830 Y84.982 F9000.000
M204 S800
G1 F1200.000
G1 X87.064 Y83.979 E0.04985
G1 X88.190 Y83.390 E0.03985
G1 X89.400 Y83.013 E0.03972
G1 X90.996 Y82.849 E0.05030
G1 X92.284 Y82.980 E0.04062
G1 X93.781 Y83.446 E0.04915
G1 X94.897 Y84.055 E0.03985
G1 X95.885 Y84.853 E0.03985
G1 X96.883 Y86.052 E0.04889
G1 X97.491 Y87.173 E0.03998
G1 X97.958 Y88.729 E0.05094
G1 X98.073 Y89.994 E0.03982
G1 X97.917 Y91.484 E0.04699
G1 X97.563 Y92.651 E0.03824
G1 X96.870 Y93.971 E0.04675
G1 X95.919 Y95.115 E0.04662
G1 X94.971 Y95.894 E0.03850
G1 X93.665 Y96.605 E0.04662
G1 X92.232 Y97.030 E0.04687
G1 X91.038 Y97.151 E0.03760
G1 X89.533 Y97.016 E0.04739
G1 X88.105 Y96.573 E0.04687
G1 X87.026 Y95.997 E0.03837
G1 X85.861 Y95.054 E0.04700
G1 X85.046 Y94.077 E0.03988
G1 X84.277 Y92.646 E0.05094
G1 X83.913 Y91.420 E0.04011
G1 X83.772 Y89.867 E0.04889
G1 X83.907 Y88.603 E0.03985
G1 X84.268 Y87.380 E0.03998
G1 X84.998 Y85.993 E0.04915
G1 X85.792 Y85.028 E0.03917
M204 S1250
G1 X86.081 Y85.266 F9000.000
M204 S800
G1 F1200.000
G1 X87.272 Y84.294 E0.04819
G1 X88.334 Y83.739 E0.03757
G1 X89.474 Y83.383 E0.03745
G1 X90.996 Y83.226 E0.04797
G1 X92.211 Y83.350 E0.03828
G1 X93.639 Y83.795 E0.04690
G1 X94.687 Y84.368 E0.03745
G1 X95.617 Y85.118 E0.03745
G1 X96.572 Y86.264 E0.04678
G1 X97.143 Y87.318 E0.03757
G1 X97.588 Y88.801 E0.04856
G1 X97.696 Y89.993 E0.03753
G1 X97.547 Y91.410 E0.04467
G1 X97.215 Y92.506 E0.03589
G1 X96.554 Y93.764 E0.04457
G1 X95.650 Y94.851 E0.04433
G1 X94.763 Y95.580 E0.03601
G1 X93.517 Y96.258 E0.04445
G1 X92.158 Y96.660 E0.04445
G1 X91.038 Y96.774 E0.03530
G1 X89.603 Y96.646 E0.04516
G1 X88.246 Y96.224 E0.04457
G1 X87.233 Y95.682 E0.03601
G1 X86.128 Y94.788 E0.04457
G1 X85.360 Y93.866 E0.03763
G1 X84.626 Y92.503 E0.04855
G1 X84.283 Y91.350 E0.03769
G1 X84.149 Y89.865 E0.04678
G1 X84.277 Y88.677 E0.03745
G1 X84.615 Y87.527 E0.03757
G1 X85.313 Y86.200 E0.04702
G1 X86.043 Y85.312 E0.03604
M204 S1250
; printing object KNIGHT.stl id:0 copy 0
G1 E-2.24000 F4200.000
;WIPE_START
G1 F7200.000
G1 X87.272 Y84.294 E-0.88442
G1 X87.316 Y84.271 E-0.02758
;WIPE_END
G1 E-0.04800 F4200.000
G1 Z0.400 F9000.000
G1 X88.636 Y87.850
G1 Z0.200
G1 E3.20000 F2400.000
M204 S800
;TYPE:Perimeter
G1 F1200.000
G1 X88.858 Y87.622 E0.00998
G1 X89.046 Y87.471 E0.00754
G1 X89.483 Y87.199 E0.01614
G1 X89.958 Y87.002 E0.01614
G1 X90.206 Y86.934 E0.00808
G1 X90.708 Y86.859 E0.01590
G1 X91.024 Y86.856 E0.00990
G1 X91.502 Y86.906 E0.01507
G1 X91.982 Y87.035 E0.01560
G1 X92.221 Y87.132 E0.00808
G1 X92.671 Y87.382 E0.01614
G1 X93.074 Y87.702 E0.01614
G1 X93.420 Y88.083 E0.01614
G1 X93.699 Y88.516 E0.01614
G1 X93.811 Y88.748 E0.00808
G1 X93.903 Y88.988 E0.00808
G1 X94.028 Y89.487 E0.01614
G1 X94.059 Y89.732 E0.00773
G1 X94.065 Y90.131 E0.01252
G1 X93.997 Y90.673 E0.01712
G1 X93.853 Y91.150 E0.01564
G1 X93.768 Y91.347 E0.00671
G1 X93.670 Y91.537 E0.00671
G1 X93.403 Y91.937 E0.01508
G1 X93.080 Y92.293 E0.01508
G1 X92.933 Y92.423 E0.00615
G1 X92.539 Y92.700 E0.01508
G1 X92.110 Y92.916 E0.01508
G1 X91.926 Y92.984 E0.00615
G1 X91.460 Y93.101 E0.01508
G1 X90.981 Y93.148 E0.01508
G1 X90.554 Y93.127 E0.01341
G1 X90.065 Y93.030 E0.01564
G1 X89.877 Y92.971 E0.00615
G1 X89.422 Y92.769 E0.01564
G1 X89.252 Y92.670 E0.00615
G1 X88.867 Y92.385 E0.01501
G1 X88.509 Y92.024 E0.01594
G1 X88.362 Y91.835 E0.00752
G1 X88.097 Y91.393 E0.01614
G1 X87.993 Y91.158 E0.00808
G1 X87.843 Y90.665 E0.01614
G1 X87.776 Y90.155 E0.01614
M73 P1 R41
G1 X87.792 Y89.648 E0.01590
G1 X87.846 Y89.337 E0.00990
G1 X87.981 Y88.875 E0.01507
G1 X88.194 Y88.426 E0.01560
G1 X88.328 Y88.215 E0.00784
G1 X88.594 Y87.892 E0.01310
M204 S1250
G1 X88.324 Y87.629 F9000.000
M204 S800
G1 F1200.000
G1 X88.604 Y87.343 E0.01256
G1 X88.821 Y87.168 E0.00872
G1 X89.310 Y86.864 E0.01807
G1 X89.843 Y86.643 E0.01807
G1 X90.121 Y86.566 E0.00904
G1 X90.686 Y86.482 E0.01793
G1 X91.042 Y86.479 E0.01115
G1 X91.563 Y86.533 E0.01643
G1 X92.109 Y86.680 E0.01775
G1 X92.377 Y86.788 E0.00904
G1 X92.881 Y87.068 E0.01807
G1 X93.332 Y87.427 E0.01807
G1 X93.719 Y87.854 E0.01807
G1 X94.032 Y88.338 E0.01807
G1 X94.157 Y88.598 E0.00904
G1 X94.261 Y88.867 E0.00904
G1 X94.401 Y89.426 E0.01807
G1 X94.435 Y89.706 E0.00884
G1 X94.443 Y90.145 E0.01377
G1 X94.409 Y90.524 E0.01193
G1 X94.364 Y90.762 E0.00761
G1 X94.207 Y91.280 E0.01694
G1 X94.109 Y91.508 E0.00780
G1 X93.995 Y91.729 E0.00780
G1 X93.701 Y92.169 E0.01660
G1 X93.345 Y92.562 E0.01660
G1 X93.167 Y92.719 E0.00746
G1 X92.734 Y93.024 E0.01660
G1 X92.261 Y93.262 E0.01660
G1 X92.038 Y93.345 E0.00746
G1 X91.524 Y93.474 E0.01660
G1 X90.997 Y93.526 E0.01660
G1 X90.501 Y93.501 E0.01559
G1 X89.971 Y93.396 E0.01694
G1 X89.744 Y93.324 E0.00746
G1 X89.250 Y93.105 E0.01694
G1 X89.044 Y92.985 E0.00746
G1 X88.620 Y92.671 E0.01657
G1 X88.226 Y92.273 E0.01754
G1 X88.055 Y92.054 E0.00870
G1 X87.759 Y91.560 E0.01807
G1 X87.642 Y91.296 E0.00904
G1 X87.474 Y90.745 E0.01807
G1 X87.399 Y90.173 E0.01807
G1 X87.418 Y89.602 E0.01793
G1 X87.478 Y89.252 E0.01115
G1 X87.625 Y88.749 E0.01643
G1 X87.867 Y88.237 E0.01775
G1 X88.019 Y87.997 E0.00890
G1 X88.282 Y87.672 E0.01313
M204 S1250
G1 X88.013 Y87.408 F9000.000
M204 S800
;TYPE:External perimeter
G1 F1200.000
G1 X88.350 Y87.063 E0.01513
G1 X88.596 Y86.865 E0.00989
G1 X88.860 Y86.685 E0.01001
G1 X89.138 Y86.528 E0.01001
G1 X89.428 Y86.394 E0.01001
G1 X89.727 Y86.284 E0.01001
G1 X90.035 Y86.198 E0.01001
G1 X90.349 Y86.139 E0.01001
G1 X90.664 Y86.105 E0.00996
G1 X91.060 Y86.102 E0.01239
G1 X91.624 Y86.160 E0.01779
G1 X91.932 Y86.230 E0.00989
G1 X92.237 Y86.325 E0.01001
G1 X92.533 Y86.444 E0.01001
G1 X92.818 Y86.588 E0.01001
G1 X93.090 Y86.754 E0.01001
G1 X93.348 Y86.943 E0.01001
G1 X93.590 Y87.151 E0.01001
G1 X93.814 Y87.379 E0.01001
G1 X94.019 Y87.624 E0.01001
G1 X94.202 Y87.885 E0.01001
G1 X94.364 Y88.160 E0.01001
G1 X94.503 Y88.448 E0.01001
G1 X94.618 Y88.746 E0.01001
G1 X94.708 Y89.052 E0.01001
G1 X94.773 Y89.364 E0.01001
G1 X94.812 Y89.679 E0.00995
G1 X94.820 Y90.159 E0.01503
G1 X94.783 Y90.575 E0.01312
G1 X94.731 Y90.852 E0.00882
G1 X94.562 Y91.409 E0.01825
G1 X94.451 Y91.670 E0.00889
G1 X94.320 Y91.921 E0.00889
G1 X93.999 Y92.402 E0.01813
G1 X93.610 Y92.830 E0.01813
G1 X93.401 Y93.016 E0.00877
G1 X92.928 Y93.349 E0.01813
G1 X92.412 Y93.608 E0.01813
G1 X92.150 Y93.706 E0.00877
G1 X91.589 Y93.846 E0.01813
G1 X91.013 Y93.903 E0.01813
G1 X90.730 Y93.900 E0.00889
G1 X90.447 Y93.875 E0.00889
G1 X89.877 Y93.762 E0.01825
G1 X89.610 Y93.677 E0.00877
G1 X89.078 Y93.441 E0.01825
G1 X88.836 Y93.301 E0.00877
G1 X88.372 Y92.956 E0.01812
G1 X87.942 Y92.523 E0.01914
G1 X87.748 Y92.274 E0.00989
G1 X87.573 Y92.007 E0.01001
G1 X87.420 Y91.727 E0.01001
G1 X87.291 Y91.435 E0.01001
G1 X87.186 Y91.134 E0.01001
G1 X87.106 Y90.825 E0.01001
G1 X87.051 Y90.510 E0.01001
G1 X87.022 Y90.192 E0.01001
G1 X87.020 Y89.873 E0.01001
G1 X87.043 Y89.556 E0.00996
G1 X87.110 Y89.166 E0.01239
G1 X87.269 Y88.622 E0.01779
G1 X87.392 Y88.331 E0.00989
G1 X87.541 Y88.048 E0.01001
G1 X87.711 Y87.780 E0.00996
G1 X87.971 Y87.451 E0.01316
M204 S1250
G1 X88.404 Y87.489 F9000.000
G1 E-2.24000 F4200.000
;WIPE_START
G1 F7200.000
G1 X88.350 Y87.063 E-0.30069
G1 X88.596 Y86.865 E-0.17488
G1 X88.860 Y86.685 E-0.17694
G1 X89.138 Y86.528 E-0.17694
G1 X89.273 Y86.465 E-0.08254
;WIPE_END
G1 E-0.04800 F4200.000
G1 Z0.400 F9000.000
G1 X93.655 Y88.687
G1 Z0.200
G1 E3.20000 F2400.000
M204 S800
;TYPE:Solid infill
;WIDTH:0.423986
G1 F1200.000
G1 X92.870 Y87.901 E0.03521
G1 X92.513 Y87.618 E0.01442
G1 X92.099 Y87.388 E0.01502
G1 X91.892 Y87.304 E0.00707
G1 X91.676 Y87.246 E0.00710
G1 X93.684 Y89.254 E0.08998
G1 X93.776 Y89.758 E0.01624
G1 X93.778 Y89.887 E0.00411
G1 X91.032 Y87.141 E0.12305
G1 X90.730 Y87.141 E0.00958
G1 X90.524 Y87.172 E0.00659
G1 X93.757 Y90.405 E0.14485
M73 P1 R40
G1 X93.722 Y90.606 E0.00646
G1 X93.652 Y90.838 E0.00770
G1 X90.076 Y87.263 E0.16022
G1 X89.693 Y87.418 E0.01311
G1 X93.503 Y91.228 E0.17073
G1 X93.423 Y91.397 E0.00591
G1 X93.307 Y91.571 E0.00664
G1 X89.350 Y87.615 E0.17730
G1 X89.049 Y87.832 E0.01176
G1 X89.039 Y87.842 E0.00046
G1 X93.074 Y91.878 E0.18084
G1 X92.811 Y92.153 E0.01208
G1 X88.772 Y88.114 E0.18098
G1 X88.535 Y88.416 E0.01216
G1 X92.500 Y92.382 E0.17769
G1 X92.394 Y92.457 E0.00413
G1 X92.156 Y92.576 E0.00843
G1 X88.346 Y88.766 E0.17074
G1 X88.246 Y88.976 E0.00738
G1 X88.194 Y89.153 E0.00585
G1 X91.772 Y92.731 E0.16033
G1 X91.332 Y92.830 E0.01430
G1 X88.090 Y89.588 E0.14527
G1 X88.061 Y90.098 E0.01619
G1 X90.821 Y92.857 E0.12366
G1 X90.588 Y92.846 E0.00737
G1 X90.191 Y92.767 E0.01283
G1 X88.158 Y90.734 E0.09110
G1 X88.179 Y90.832 E0.00318
G1 X88.354 Y91.273 E0.01502
G1 X88.460 Y91.469 E0.00707
G1 X88.726 Y91.841 E0.01448
G1 X89.617 Y92.732 E0.03993
M204 S1250
; stop printing object KNIGHT.stl id:0 copy 0
M106 S84.15
;LAYER_CHANGE
;Z:0.25
;HEIGHT:0.05
;BEFORE_LAYER_CHANGE
G92 E0.0
;0.25


G1 Z0.250 F9000.000
;AFTER_LAYER_CHANGE
;0.25
M104 S210 ; set temperature
G1 E-3.20000 F4200.000
G1 Z0.450 F9000.000
G1 X87.964 Y96.923
G1 Z0.250
G1 E3.20000 F2400.000
;TYPE:Skirt
;WIDTH:0.42
G1 F1386
G1 X86.814 Y96.309 E0.01109
G1 X85.596 Y95.322 E0.01334
G1 X84.731 Y94.282 E0.01151
G1 X83.928 Y92.789 E0.01442
G1 X83.542 Y91.488 E0.01154
G1 X83.395 Y89.865 E0.01387
G1 X83.538 Y88.529 E0.01143
G1 X83.922 Y87.232 E0.01151
G1 X84.684 Y85.786 E0.01391
G1 X85.578 Y84.697 E0.01199
G1 X86.856 Y83.664 E0.01398
G1 X88.051 Y83.040 E0.01147
G1 X89.330 Y82.643 E0.01139
G1 X91.000 Y82.472 E0.01428
G1 X92.362 Y82.611 E0.01165
G1 X93.923 Y83.097 E0.01391
G1 X95.103 Y83.740 E0.01143
G1 X96.152 Y84.587 E0.01147
G1 X97.193 Y85.836 E0.01383
G1 X97.839 Y87.029 E0.01154
G1 X98.327 Y88.652 E0.01442
G1 X98.450 Y89.994 E0.01147
G1 X98.287 Y91.554 E0.01334
G1 X97.911 Y92.798 E0.01105
G1 X97.182 Y94.182 E0.01331
G1 X96.186 Y95.382 E0.01327
G1 X95.182 Y96.207 E0.01105
G1 X93.808 Y96.954 E0.01331
G1 X92.309 Y97.399 E0.01331
G1 X91.038 Y97.528 E0.01087
G1 X89.458 Y97.386 E0.01349
G1 X88.022 Y96.941 E0.01280
G1 X88.133 Y96.582 F9000.000
G1 F1386
G1 X87.026 Y95.997 E0.01065
G1 X85.861 Y95.054 E0.01275
G1 X85.046 Y94.077 E0.01082
G1 X84.277 Y92.646 E0.01382
G1 X83.913 Y91.420 E0.01088
G1 X83.772 Y89.867 E0.01327
G1 X83.907 Y88.603 E0.01081
G1 X84.268 Y87.380 E0.01085
G1 X84.998 Y85.993 E0.01334
G1 X85.842 Y84.967 E0.01130
G1 X87.064 Y83.979 E0.01337
G1 X88.190 Y83.390 E0.01081
G1 X89.400 Y83.013 E0.01078
G1 X90.996 Y82.849 E0.01365
G1 X92.284 Y82.980 E0.01102
G1 X93.781 Y83.446 E0.01334
G1 X94.897 Y84.055 E0.01081
G1 X95.885 Y84.853 E0.01081
G1 X96.883 Y86.052 E0.01327
G1 X97.491 Y87.173 E0.01085
G1 X97.958 Y88.729 E0.01382
G1 X98.073 Y89.994 E0.01081
G1 X97.917 Y91.484 E0.01275
G1 X97.563 Y92.651 E0.01038
G1 X96.870 Y93.971 E0.01268
G1 X95.919 Y95.115 E0.01265
G1 X94.971 Y95.894 E0.01045
G1 X93.665 Y96.605 E0.01265
G1 X92.232 Y97.030 E0.01272
G1 X91.038 Y97.151 E0.01020
G1 X89.533 Y97.016 E0.01286
G1 X88.190 Y96.600 E0.01196
G1 X88.302 Y96.241 F9000.000
G1 F1386
G1 X87.233 Y95.682 E0.01026
G1 X86.128 Y94.788 E0.01209
G1 X85.360 Y93.866 E0.01021
G1 X84.626 Y92.503 E0.01317
G1 X84.283 Y91.350 E0.01023
G1 X84.149 Y89.865 E0.01269
G1 X84.277 Y88.677 E0.01016
G1 X84.615 Y87.527 E0.01019
G1 X85.313 Y86.200 E0.01276
G1 X86.106 Y85.236 E0.01061
G1 X87.272 Y84.294 E0.01276
G1 X88.334 Y83.739 E0.01019
G1 X89.474 Y83.383 E0.01016
G1 X90.996 Y83.226 E0.01302
G1 X92.211 Y83.350 E0.01039
G1 X93.639 Y83.795 E0.01273
G1 X94.687 Y84.368 E0.01016
G1 X95.617 Y85.118 E0.01016
G1 X96.572 Y86.264 E0.01269
G1 X97.143 Y87.318 E0.01019
G1 X97.588 Y88.801 E0.01318
G1 X97.696 Y89.993 E0.01018
G1 X97.547 Y91.410 E0.01212
G1 X97.215 Y92.506 E0.00974
G1 X96.554 Y93.764 E0.01209
G1 X95.650 Y94.851 E0.01203
G1 X94.763 Y95.580 E0.00977
G1 X93.517 Y96.258 E0.01206
G1 X92.158 Y96.660 E0.01206
G1 X91.038 Y96.774 E0.00958
G1 X89.603 Y96.646 E0.01225
G1 X88.359 Y96.259 E0.01108
; printing object KNIGHT.stl id:0 copy 0
G1 E-2.24000 F4200.000
;WIPE_START
G1 F7200.000
G1 X87.233 Y95.682 E-0.70108
G1 X86.937 Y95.443 E-0.21092
;WIPE_END
G1 E-0.04800 F4200.000
G1 Z0.450 F9000.000
G1 X89.605 Y93.145
G1 Z0.250
G1 E3.20000 F2400.000
M204 S300
;TYPE:Perimeter
;WIDTH:0.4
G1 F900.000
G1 X89.082 Y92.872 E0.00477
G1 X88.699 Y92.587 E0.00386
G1 X88.469 Y92.369 E0.00256
G1 X88.149 Y91.987 E0.00403
G1 X87.996 Y91.754 E0.00226
G1 X87.749 Y91.254 E0.00451
G1 X87.660 Y90.997 E0.00221
G1 X87.577 Y90.660 E0.00281
G1 X87.515 Y90.168 E0.00401
G1 X87.512 Y89.895 E0.00221
G1 X87.576 Y89.335 E0.00456
G1 X87.642 Y89.064 E0.00226
G1 X87.836 Y88.548 E0.00446
G1 X88.117 Y88.059 E0.00456
G1 X88.470 Y87.628 E0.00451
G1 X88.890 Y87.261 E0.00451
G1 X89.363 Y86.966 E0.00451
G1 X89.616 Y86.849 E0.00226
G1 X90.147 Y86.679 E0.00451
G1 X90.421 Y86.626 E0.00226
G1 X90.692 Y86.597 E0.00221
G1 X91.039 Y86.593 E0.00281
G1 X91.532 Y86.645 E0.00401
G1 X91.804 Y86.706 E0.00226
G1 X92.323 Y86.891 E0.00446
G1 X92.816 Y87.164 E0.00456
G1 X93.253 Y87.511 E0.00451
G1 X93.449 Y87.710 E0.00226
G1 X93.784 Y88.147 E0.00446
G1 X93.956 Y88.448 E0.00281
G1 X94.151 Y88.904 E0.00401
G1 X94.287 Y89.445 E0.00451
G1 X94.320 Y89.711 E0.00217
G1 X94.327 Y90.122 E0.00333
G1 X94.293 Y90.512 E0.00317
G1 X94.251 Y90.742 E0.00189
G1 X94.173 Y91.024 E0.00236
G1 X94.004 Y91.456 E0.00376
G1 X93.747 Y91.910 E0.00422
G1 X93.621 Y92.084 E0.00174
G1 X93.264 Y92.479 E0.00430
G1 X93.056 Y92.658 E0.00222
G1 X92.661 Y92.934 E0.00390
G1 X92.193 Y93.163 E0.00422
G1 X91.734 Y93.313 E0.00390
G1 X91.505 Y93.361 E0.00190
G1 X91.274 Y93.393 E0.00189
G1 X90.736 Y93.406 E0.00435
G1 X90.222 Y93.336 E0.00420
G1 X89.660 Y93.167 E0.00474
M204 S1250
