; generated by PrusaSlicer 2.5.0+win64 on 2022-11-09 at 09:40:41 UTC


;
;

;
;
; 

; external perimeters extrusion width = 0.45mm
; perimeters extrusion width = 0.45mm
; infill extrusion width = 0.45mm
; solid infill extrusion width = 0.45mm
; top infill extrusion width = 0.40mm
; support material extrusion width = 0.35mm
; first layer extrusion width = 0.42mm

M73 P0 R82
M107
;TYPE:Custom
G90 ; use absolute coordinates
M83 ; extruder relative mode
M104 S170 ; set extruder temp for bed leveling
M140 S60 ; set bed temp
M109 R170 ; wait for bed leveling temp
M190 S60 ; wait for bed temp
G28 ; home all without mesh bed level
G29 ; mesh bed leveling 
M104 S215 ; set extruder temp
G92 E0.0
G1 Y-2.0 X179 F2400
G1 Z3 F720
M109 S215 ; wait for extruder temp

; intro line
G1 X170 F1000
G1 Z0.2 F720
G1 X110.0 E8.0 F900
G1 X40.0 E10.0 F700
G92 E0.0

M221 S95 ; set flow
G21 ; set units to millimeters
G90 ; use absolute coordinates
M83 ; use relative distances for extrusion
M900 K0.2 ; Filament gcode LA 1.5
; ; Filament gcode LA 1.0
M107
;LAYER_CHANGE
;Z:0.2
;HEIGHT:0.2
;BEFORE_LAYER_CHANGE
G92 E0.0
;0.2


G1 Z.2 F9000
;AFTER_LAYER_CHANGE
;0.2
G1 E-3.2 F4200
G1 Z.4 F9000
G1 X39.06 Y62.817
G1 Z.2
G1 E3.2 F2400
M204 S800
;TYPE:Skirt/Brim
;WIDTH:0.42
G1 F1200
G1 X40 Y62.623 E.03008
G1 X140 Y62.623 E3.13543
G1 X141.307 Y63.015 E.04278
G1 X142.183 Y64.06 E.04278
G1 X142.377 Y65 E.03008
G1 X142.377 Y115 E1.56771
G1 X141.985 Y116.307 E.04278
G1 X140.94 Y117.183 E.04278
G1 X140 Y117.377 E.03008
G1 X40 Y117.377 E3.13543
G1 X38.693 Y116.985 E.04278
G1 X37.817 Y115.94 E.04278
G1 X37.623 Y115 E.03008
G1 X37.623 Y65 E1.56771
G1 X38.015 Y63.693 E.04278
G1 X39.014 Y62.855 E.0409
M204 S1250
; printing object BASE-SMALL.stl id:0 copy 0
G1 E-2.24 F4200
;WIPE_START
G1 F7200
G1 X40 Y62.623 E-.56121
G1 X40.633 Y62.623 E-.35079
;WIPE_END
G1 E-.048 F4200
G1 Z.4 F9000
G1 X40.787 Y65.787
G1 Z.2
G1 E3.2 F2400
M204 S800
;TYPE:Perimeter
;WIDTH:0.419999
G1 F1200
G1 X139.213 Y65.787 E3.08607
G1 X139.213 Y114.213 E1.51836
G1 X40.787 Y114.213 E3.08607
G1 X40.787 Y65.847 E1.51647
M204 S1250
G1 X40.41 Y65.41 F9000
M204 S800
;TYPE:External perimeter
G1 F1200
G1 X139.59 Y65.41 E3.10971
G1 X139.59 Y114.59 E1.542
M73 P1 R82
G1 X40.41 Y114.59 E3.10971
M73 P1 R81
G1 X40.41 Y65.47 E1.54012
M204 S1250
G1 X40.805 Y65.471 F9000
G1 E-2.24 F4200
;WIPE_START
G1 F7200
G1 X42.056 Y65.469 E-.912
;WIPE_END
G1 E-.048 F4200
G1 Z.4 F9000
G1 X138.336 Y65.9
G1 Z.2
G1 E3.2 F2400
M204 S800
;TYPE:Solid infill
;WIDTH:0.420924
G1 F1200
G1 X138.93 Y66.495 E.02643
G1 X138.93 Y67.029 E.0168
G1 X137.971 Y66.07 E.04265
G1 X137.436 Y66.07 E.0168
G1 X138.93 Y67.564 E.06641
G1 X138.93 Y68.098 E.0168
G1 X136.902 Y66.07 E.09017
G1 X136.367 Y66.07 E.0168
G1 X138.93 Y68.633 E.11393
G1 X138.93 Y69.168 E.0168
G1 X135.832 Y66.07 E.1377
G1 X135.298 Y66.07 E.0168
G1 X138.93 Y69.702 E.16146
G1 X138.93 Y70.237 E.0168
G1 X134.763 Y66.07 E.18522
G1 X134.229 Y66.07 E.0168
G1 X138.93 Y70.771 E.20898
G1 X138.93 Y71.306 E.0168
G1 X133.694 Y66.07 E.23275
G1 X133.159 Y66.07 E.0168
G1 X138.93 Y71.841 E.25651
G1 X138.93 Y72.375 E.0168
G1 X132.625 Y66.07 E.28027
G1 X132.09 Y66.07 E.0168
G1 X138.93 Y72.91 E.30403
G1 X138.93 Y73.444 E.0168
G1 X131.556 Y66.07 E.32779
G1 X131.021 Y66.07 E.0168
G1 X138.93 Y73.979 E.35156
G1 X138.93 Y74.513 E.0168
G1 X130.487 Y66.07 E.37532
G1 X129.952 Y66.07 E.0168
G1 X138.93 Y75.048 E.39908
G1 X138.93 Y75.583 E.0168
G1 X129.417 Y66.07 E.42284
G1 X128.883 Y66.07 E.0168
G1 X138.93 Y76.117 E.44661
G1 X138.93 Y76.652 E.0168
G1 X128.348 Y66.07 E.47037
G1 X127.814 Y66.07 E.0168
G1 X138.93 Y77.186 E.49413
G1 X138.93 Y77.721 E.0168
G1 X127.279 Y66.07 E.51789
G1 X126.745 Y66.07 E.0168
G1 X138.93 Y78.255 E.54165
G1 X138.93 Y78.79 E.0168
G1 X126.21 Y66.07 E.56542
G1 X125.675 Y66.07 E.0168
G1 X138.93 Y79.325 E.58918
G1 X138.93 Y79.859 E.0168
G1 X125.141 Y66.07 E.61294
G1 X124.606 Y66.07 E.0168
G1 X138.93 Y80.394 E.6367
G1 X138.93 Y80.928 E.0168
G1 X124.072 Y66.07 E.66046
G1 X123.537 Y66.07 E.0168
G1 X138.93 Y81.463 E.68423
G1 X138.93 Y81.998 E.0168
G1 X123.002 Y66.07 E.70799
G1 X122.468 Y66.07 E.0168
G1 X138.93 Y82.532 E.73175
G1 X138.93 Y83.067 E.0168
G1 X121.933 Y66.07 E.75551
G1 X121.399 Y66.07 E.0168
G1 X138.93 Y83.601 E.77928
G1 X138.93 Y84.136 E.0168
G1 X120.864 Y66.07 E.80304
G1 X120.33 Y66.07 E.0168
G1 X138.93 Y84.67 E.8268
G1 X138.93 Y85.205 E.0168
G1 X119.795 Y66.07 E.85056
G1 X119.26 Y66.07 E.0168
G1 X138.93 Y85.74 E.87432
G1 X138.93 Y86.274 E.0168
G1 X118.726 Y66.07 E.89809
G1 X118.191 Y66.07 E.0168
G1 X138.93 Y86.809 E.92185
G1 X138.93 Y87.343 E.0168
G1 X117.657 Y66.07 E.94561
G1 X117.122 Y66.07 E.0168
G1 X138.93 Y87.878 E.96937
G1 X138.93 Y88.412 E.0168
G1 X116.588 Y66.07 E.99314
G1 X116.053 Y66.07 E.0168
G1 X138.93 Y88.947 E1.0169
G1 X138.93 Y89.482 E.0168
M73 P2 R81
G1 X115.518 Y66.07 E1.04066
G1 X114.984 Y66.07 E.0168
G1 X138.93 Y90.016 E1.06442
G1 X138.93 Y90.551 E.0168
G1 X114.449 Y66.07 E1.08818
G1 X113.915 Y66.07 E.0168
G1 X138.93 Y91.085 E1.11195
G1 X138.93 Y91.62 E.0168
G1 X113.38 Y66.07 E1.13571
G1 X112.846 Y66.07 E.0168
G1 X138.93 Y92.154 E1.15947
G1 X138.93 Y92.689 E.0168
G1 X112.311 Y66.07 E1.18323
G1 X111.776 Y66.07 E.0168
G1 X138.93 Y93.224 E1.207
G1 X138.93 Y93.758 E.0168
M73 P2 R80
G1 X111.242 Y66.07 E1.23076
G1 X110.707 Y66.07 E.0168
G1 X138.93 Y94.293 E1.25452
G1 X138.93 Y94.827 E.0168
G1 X110.173 Y66.07 E1.27828
G1 X109.638 Y66.07 E.0168
G1 X138.93 Y95.362 E1.30204
G1 X138.93 Y95.897 E.0168
G1 X109.103 Y66.07 E1.32581
G1 X108.569 Y66.07 E.0168
G1 X138.93 Y96.431 E1.34957
G1 X138.93 Y96.966 E.0168
G1 X108.034 Y66.07 E1.37333
G1 X107.5 Y66.07 E.0168
G1 X138.93 Y97.5 E1.39709
G1 X138.93 Y98.035 E.0168
G1 X106.965 Y66.07 E1.42086
G1 X106.431 Y66.07 E.0168
G1 X138.93 Y98.569 E1.44462
G1 X138.93 Y99.104 E.0168
G1 X105.896 Y66.07 E1.46838
G1 X105.361 Y66.07 E.0168
G1 X138.93 Y99.639 E1.49214
G1 X138.93 Y100.173 E.0168
G1 X104.827 Y66.07 E1.5159
G1 X104.292 Y66.07 E.0168
G1 X138.93 Y100.708 E1.53967
G1 X138.93 Y101.242 E.0168
G1 X103.758 Y66.07 E1.56343
G1 X103.223 Y66.07 E.0168
G1 X138.93 Y101.777 E1.58719
G1 X138.93 Y102.311 E.0168
M73 P3 R80
G1 X102.689 Y66.07 E1.61095
G1 X102.154 Y66.07 E.0168
G1 X138.93 Y102.846 E1.63472
G1 X138.93 Y103.381 E.0168
G1 X101.619 Y66.07 E1.65848
G1 X101.085 Y66.07 E.0168
G1 X138.93 Y103.915 E1.68224
G1 X138.93 Y104.45 E.0168
G1 X100.55 Y66.07 E1.706
G1 X100.016 Y66.07 E.0168
G1 X138.93 Y104.984 E1.72976
G1 X138.93 Y105.519 E.0168
G1 X99.481 Y66.07 E1.75353
G1 X98.946 Y66.07 E.0168
G1 X138.93 Y106.054 E1.77729
G1 X138.93 Y106.588 E.0168
G1 X98.412 Y66.07 E1.80105
G1 X97.877 Y66.07 E.0168
M73 P3 R79
G1 X138.93 Y107.123 E1.82481
G1 X138.93 Y107.657 E.0168
G1 X97.343 Y66.07 E1.84858
G1 X96.808 Y66.07 E.0168
G1 X138.93 Y108.192 E1.87234
G1 X138.93 Y108.726 E.0168
G1 X96.274 Y66.07 E1.8961
G1 X95.739 Y66.07 E.0168
G1 X138.93 Y109.261 E1.91986
G1 X138.93 Y109.796 E.0168
G1 X95.204 Y66.07 E1.94362
G1 X94.67 Y66.07 E.0168
G1 X138.93 Y110.33 E1.96739
G1 X138.93 Y110.865 E.0168
G1 X94.135 Y66.07 E1.99115
G1 X93.601 Y66.07 E.0168
M73 P4 R79
G1 X138.93 Y111.399 E2.01491
G1 X138.93 Y111.934 E.0168
G1 X93.066 Y66.07 E2.03867
G1 X92.532 Y66.07 E.0168
G1 X138.93 Y112.468 E2.06244
G1 X138.93 Y113.003 E.0168
G1 X91.997 Y66.07 E2.0862
G1 X91.462 Y66.07 E.0168
G1 X138.93 Y113.538 E2.10996
G1 X138.93 Y113.93 E.01234
G1 X138.788 Y113.93 E.00447
G1 X90.928 Y66.07 E2.12741
G1 X90.393 Y66.07 E.0168
G1 X138.253 Y113.93 E2.12741
G1 X137.719 Y113.93 E.0168
G1 X89.859 Y66.07 E2.12741
G1 X89.324 Y66.07 E.0168
G1 X137.184 Y113.93 E2.12741
G1 X136.65 Y113.93 E.0168
G1 X88.789 Y66.07 E2.12741
G1 X88.255 Y66.07 E.0168
M73 P4 R78
G1 X136.115 Y113.93 E2.12741
G1 X135.581 Y113.93 E.0168
G1 X87.72 Y66.07 E2.12741
G1 X87.186 Y66.07 E.0168
G1 X135.046 Y113.93 E2.12741
G1 X134.511 Y113.93 E.0168
G1 X86.651 Y66.07 E2.12741
G1 X86.117 Y66.07 E.0168
G1 X133.977 Y113.93 E2.12741
G1 X133.442 Y113.93 E.0168
M73 P5 R78
G1 X85.582 Y66.07 E2.12741
G1 X85.047 Y66.07 E.0168
G1 X132.908 Y113.93 E2.12741
G1 X132.373 Y113.93 E.0168
G1 X84.513 Y66.07 E2.12741
G1 X83.978 Y66.07 E.0168
G1 X131.839 Y113.93 E2.12741
G1 X131.304 Y113.93 E.0168
G1 X83.444 Y66.07 E2.12741
G1 X82.909 Y66.07 E.0168
G1 X130.769 Y113.93 E2.12741
G1 X130.235 Y113.93 E.0168
G1 X82.375 Y66.07 E2.12741
G1 X81.84 Y66.07 E.0168
G1 X129.7 Y113.93 E2.12741
G1 X129.166 Y113.93 E.0168
G1 X81.305 Y66.07 E2.12741
G1 X80.771 Y66.07 E.0168
G1 X128.631 Y113.93 E2.12741
G1 X128.096 Y113.93 E.0168
G1 X80.236 Y66.07 E2.12741
G1 X79.702 Y66.07 E.0168
G1 X127.562 Y113.93 E2.12741
G1 X127.027 Y113.93 E.0168
G1 X79.167 Y66.07 E2.12741
G1 X78.632 Y66.07 E.0168
M73 P5 R77
G1 X126.493 Y113.93 E2.12741
G1 X125.958 Y113.93 E.0168
M73 P6 R77
G1 X78.098 Y66.07 E2.12741
G1 X77.563 Y66.07 E.0168
G1 X125.424 Y113.93 E2.12741
G1 X124.889 Y113.93 E.0168
G1 X77.029 Y66.07 E2.12741
G1 X76.494 Y66.07 E.0168
G1 X124.354 Y113.93 E2.12741
G1 X123.82 Y113.93 E.0168
G1 X75.96 Y66.07 E2.12741
G1 X75.425 Y66.07 E.0168
G1 X123.285 Y113.93 E2.12741
G1 X122.751 Y113.93 E.0168
G1 X74.89 Y66.07 E2.12741
G1 X74.356 Y66.07 E.0168
G1 X122.216 Y113.93 E2.12741
G1 X121.682 Y113.93 E.0168
G1 X73.821 Y66.07 E2.12741
G1 X73.287 Y66.07 E.0168
G1 X121.147 Y113.93 E2.12741
G1 X120.612 Y113.93 E.0168
G1 X72.752 Y66.07 E2.12741
G1 X72.218 Y66.07 E.0168
G1 X120.078 Y113.93 E2.12741
G1 X119.543 Y113.93 E.0168
G1 X71.683 Y66.07 E2.12741
G1 X71.148 Y66.07 E.0168
G1 X119.009 Y113.93 E2.12741
G1 X118.474 Y113.93 E.0168
G1 X70.614 Y66.07 E2.12741
G1 X70.079 Y66.07 E.0168
M73 P7 R77
G1 X117.939 Y113.93 E2.12741
G1 X117.405 Y113.93 E.0168
M73 P7 R76
G1 X69.545 Y66.07 E2.12741
G1 X69.01 Y66.07 E.0168
G1 X116.87 Y113.93 E2.12741
G1 X116.336 Y113.93 E.0168
G1 X68.475 Y66.07 E2.12741
G1 X67.941 Y66.07 E.0168
G1 X115.801 Y113.93 E2.12741
G1 X115.267 Y113.93 E.0168
G1 X67.406 Y66.07 E2.12741
G1 X66.872 Y66.07 E.0168
G1 X114.732 Y113.93 E2.12741
G1 X114.197 Y113.93 E.0168
G1 X66.337 Y66.07 E2.12741
G1 X65.803 Y66.07 E.0168
G1 X113.663 Y113.93 E2.12741
G1 X113.128 Y113.93 E.0168
G1 X65.268 Y66.07 E2.12741
G1 X64.733 Y66.07 E.0168
G1 X112.594 Y113.93 E2.12741
G1 X112.059 Y113.93 E.0168
G1 X64.199 Y66.07 E2.12741
G1 X63.664 Y66.07 E.0168
G1 X111.525 Y113.93 E2.12741
G1 X110.99 Y113.93 E.0168
G1 X63.13 Y66.07 E2.12741
G1 X62.595 Y66.07 E.0168
M73 P8 R76
G1 X110.455 Y113.93 E2.12741
G1 X109.921 Y113.93 E.0168
G1 X62.061 Y66.07 E2.12741
G1 X61.526 Y66.07 E.0168
G1 X109.386 Y113.93 E2.12741
G1 X108.852 Y113.93 E.0168
G1 X60.991 Y66.07 E2.12741
G1 X60.457 Y66.07 E.0168
G1 X108.317 Y113.93 E2.12741
G1 X107.782 Y113.93 E.0168
M73 P8 R75
G1 X59.922 Y66.07 E2.12741
G1 X59.388 Y66.07 E.0168
G1 X107.248 Y113.93 E2.12741
G1 X106.713 Y113.93 E.0168
G1 X58.853 Y66.07 E2.12741
G1 X58.319 Y66.07 E.0168
G1 X106.179 Y113.93 E2.12741
G1 X105.644 Y113.93 E.0168
G1 X57.784 Y66.07 E2.12741
G1 X57.249 Y66.07 E.0168
G1 X105.11 Y113.93 E2.12741
G1 X104.575 Y113.93 E.0168
G1 X56.715 Y66.07 E2.12741
G1 X56.18 Y66.07 E.0168
G1 X104.04 Y113.93 E2.12741
G1 X103.506 Y113.93 E.0168
G1 X55.646 Y66.07 E2.12741
G1 X55.111 Y66.07 E.0168
G1 X102.971 Y113.93 E2.12741
G1 X102.437 Y113.93 E.0168
M73 P9 R75
G1 X54.576 Y66.07 E2.12741
G1 X54.042 Y66.07 E.0168
G1 X101.902 Y113.93 E2.12741
G1 X101.368 Y113.93 E.0168
G1 X53.507 Y66.07 E2.12741
G1 X52.973 Y66.07 E.0168
G1 X100.833 Y113.93 E2.12741
G1 X100.298 Y113.93 E.0168
G1 X52.438 Y66.07 E2.12741
G1 X51.904 Y66.07 E.0168
G1 X99.764 Y113.93 E2.12741
G1 X99.229 Y113.93 E.0168
G1 X51.369 Y66.07 E2.12741
G1 X50.834 Y66.07 E.0168
M73 P9 R74
G1 X98.695 Y113.93 E2.12741
G1 X98.16 Y113.93 E.0168
G1 X50.3 Y66.07 E2.12741
G1 X49.765 Y66.07 E.0168
G1 X97.626 Y113.93 E2.12741
G1 X97.091 Y113.93 E.0168
G1 X49.231 Y66.07 E2.12741
G1 X48.696 Y66.07 E.0168
G1 X96.556 Y113.93 E2.12741
G1 X96.022 Y113.93 E.0168
G1 X48.162 Y66.07 E2.12741
G1 X47.627 Y66.07 E.0168
G1 X95.487 Y113.93 E2.12741
G1 X94.953 Y113.93 E.0168
M73 P10 R74
G1 X47.092 Y66.07 E2.12741
G1 X46.558 Y66.07 E.0168
G1 X94.418 Y113.93 E2.12741
G1 X93.883 Y113.93 E.0168
G1 X46.023 Y66.07 E2.12741
G1 X45.489 Y66.07 E.0168
G1 X93.349 Y113.93 E2.12741
G1 X92.814 Y113.93 E.0168
G1 X44.954 Y66.07 E2.12741
G1 X44.419 Y66.07 E.0168
G1 X92.28 Y113.93 E2.12741
G1 X91.745 Y113.93 E.0168
G1 X43.885 Y66.07 E2.12741
G1 X43.35 Y66.07 E.0168
G1 X91.211 Y113.93 E2.12741
G1 X90.676 Y113.93 E.0168
G1 X42.816 Y66.07 E2.12741
G1 X42.281 Y66.07 E.0168
G1 X90.141 Y113.93 E2.12741
G1 X89.607 Y113.93 E.0168
G1 X41.747 Y66.07 E2.12741
G1 X41.212 Y66.07 E.0168
M73 P10 R73
G1 X89.072 Y113.93 E2.12741
G1 X88.538 Y113.93 E.0168
G1 X41.07 Y66.462 E2.10996
G1 X41.07 Y66.997 E.0168
G1 X88.003 Y113.93 E2.0862
G1 X87.469 Y113.93 E.0168
G1 X41.07 Y67.531 E2.06244
G1 X41.07 Y68.066 E.0168
M73 P11 R73
G1 X86.934 Y113.93 E2.03867
G1 X86.399 Y113.93 E.0168
G1 X41.07 Y68.601 E2.01491
G1 X41.07 Y69.135 E.0168
G1 X85.865 Y113.93 E1.99115
G1 X85.33 Y113.93 E.0168
G1 X41.07 Y69.67 E1.96739
G1 X41.07 Y70.204 E.0168
G1 X84.796 Y113.93 E1.94363
G1 X84.261 Y113.93 E.0168
G1 X41.07 Y70.739 E1.91986
G1 X41.07 Y71.274 E.0168
G1 X83.726 Y113.93 E1.8961
G1 X83.192 Y113.93 E.0168
G1 X41.07 Y71.808 E1.87234
G1 X41.07 Y72.343 E.0168
G1 X82.657 Y113.93 E1.84858
G1 X82.123 Y113.93 E.0168
G1 X41.07 Y72.877 E1.82481
G1 X41.07 Y73.412 E.0168
G1 X81.588 Y113.93 E1.80105
G1 X81.054 Y113.93 E.0168
G1 X41.07 Y73.946 E1.77729
G1 X41.07 Y74.481 E.0168
G1 X80.519 Y113.93 E1.75353
G1 X79.984 Y113.93 E.0168
G1 X41.07 Y75.016 E1.72977
G1 X41.07 Y75.55 E.0168
G1 X79.45 Y113.93 E1.706
G1 X78.915 Y113.93 E.0168
M73 P11 R72
G1 X41.07 Y76.085 E1.68224
G1 X41.07 Y76.619 E.0168
M73 P12 R72
G1 X78.381 Y113.93 E1.65848
G1 X77.846 Y113.93 E.0168
G1 X41.07 Y77.154 E1.63472
G1 X41.07 Y77.688 E.0168
G1 X77.312 Y113.93 E1.61095
G1 X76.777 Y113.93 E.0168
G1 X41.07 Y78.223 E1.58719
G1 X41.07 Y78.758 E.0168
G1 X76.242 Y113.93 E1.56343
G1 X75.708 Y113.93 E.0168
G1 X41.07 Y79.292 E1.53967
G1 X41.07 Y79.827 E.0168
G1 X75.173 Y113.93 E1.51591
G1 X74.639 Y113.93 E.0168
G1 X41.07 Y80.361 E1.49214
G1 X41.07 Y80.896 E.0168
G1 X74.104 Y113.93 E1.46838
G1 X73.569 Y113.93 E.0168
G1 X41.07 Y81.431 E1.44462
G1 X41.07 Y81.965 E.0168
G1 X73.035 Y113.93 E1.42086
G1 X72.5 Y113.93 E.0168
G1 X41.07 Y82.5 E1.39709
G1 X41.07 Y83.034 E.0168
G1 X71.966 Y113.93 E1.37333
G1 X71.431 Y113.93 E.0168
G1 X41.07 Y83.569 E1.34957
G1 X41.07 Y84.103 E.0168
G1 X70.897 Y113.93 E1.32581
G1 X70.362 Y113.93 E.0168
G1 X41.07 Y84.638 E1.30205
G1 X41.07 Y85.173 E.0168
G1 X69.827 Y113.93 E1.27828
G1 X69.293 Y113.93 E.0168
G1 X41.07 Y85.707 E1.25452
G1 X41.07 Y86.242 E.0168
G1 X68.758 Y113.93 E1.23076
G1 X68.224 Y113.93 E.0168
G1 X41.07 Y86.776 E1.207
G1 X41.07 Y87.311 E.0168
G1 X67.689 Y113.93 E1.18324
G1 X67.155 Y113.93 E.0168
G1 X41.07 Y87.845 E1.15947
G1 X41.07 Y88.38 E.0168
M73 P13 R72
G1 X66.62 Y113.93 E1.13571
G1 X66.085 Y113.93 E.0168
G1 X41.07 Y88.915 E1.11195
G1 X41.07 Y89.449 E.0168
G1 X65.551 Y113.93 E1.08819
G1 X65.016 Y113.93 E.0168
G1 X41.07 Y89.984 E1.06442
G1 X41.07 Y90.518 E.0168
M73 P13 R71
G1 X64.482 Y113.93 E1.04066
G1 X63.947 Y113.93 E.0168
G1 X41.07 Y91.053 E1.0169
G1 X41.07 Y91.588 E.0168
G1 X63.412 Y113.93 E.99314
G1 X62.878 Y113.93 E.0168
G1 X41.07 Y92.122 E.96938
G1 X41.07 Y92.657 E.0168
G1 X62.343 Y113.93 E.94561
G1 X61.809 Y113.93 E.0168
G1 X41.07 Y93.191 E.92185
G1 X41.07 Y93.726 E.0168
G1 X61.274 Y113.93 E.89809
G1 X60.74 Y113.93 E.0168
G1 X41.07 Y94.26 E.87433
G1 X41.07 Y94.795 E.0168
G1 X60.205 Y113.93 E.85056
G1 X59.67 Y113.93 E.0168
G1 X41.07 Y95.33 E.8268
G1 X41.07 Y95.864 E.0168
G1 X59.136 Y113.93 E.80304
G1 X58.601 Y113.93 E.0168
G1 X41.07 Y96.399 E.77928
G1 X41.07 Y96.933 E.0168
G1 X58.067 Y113.93 E.75552
G1 X57.532 Y113.93 E.0168
G1 X41.07 Y97.468 E.73175
G1 X41.07 Y98.002 E.0168
G1 X56.998 Y113.93 E.70799
G1 X56.463 Y113.93 E.0168
G1 X41.07 Y98.537 E.68423
G1 X41.07 Y99.072 E.0168
G1 X55.928 Y113.93 E.66047
G1 X55.394 Y113.93 E.0168
G1 X41.07 Y99.606 E.6367
G1 X41.07 Y100.141 E.0168
G1 X54.859 Y113.93 E.61294
G1 X54.325 Y113.93 E.0168
G1 X41.07 Y100.675 E.58918
G1 X41.07 Y101.21 E.0168
G1 X53.79 Y113.93 E.56542
