; generated by PrusaSlicer 2.5.0+win64 on 2022-11-09 at 09:39:03 UTC


;
;

;
;
; 

; external perimeters extrusion width = 0.45mm
; perimeters extrusion width = 0.45mm
; infill extrusion width = 0.45mm
; solid infill extrusion width = 0.45mm
; top infill extrusion width = 0.40mm
; support material extrusion width = 0.35mm
; first layer extrusion width = 0.42mm

; external perimeters extrusion width = 0.45mm
; perimeters extrusion width = 0.45mm
; infill extrusion width = 0.45mm
; solid infill extrusion width = 0.45mm
; top infill extrusion width = 0.40mm
; support material extrusion width = 0.35mm
; first layer extrusion width = 0.42mm

M73 P0 R63
M107
;TYPE:Custom
G90 ; use absolute coordinates
M83 ; extruder relative mode
M104 S170 ; set extruder temp for bed leveling
M140 S60 ; set bed temp
M109 R170 ; wait for bed leveling temp
M190 S60 ; wait for bed temp
G28 ; home all without mesh bed level
G29 ; mesh bed leveling 
M104 S215 ; set extruder temp
G92 E0.0
G1 Y-2.0 X179 F2400
G1 Z3 F720
M109 S215 ; wait for extruder temp

; intro line
G1 X170 F1000
G1 Z0.2 F720
G1 X110.0 E8.0 F900
G1 X40.0 E10.0 F700
G92 E0.0

M221 S95 ; set flow
G21 ; set units to millimeters
G90 ; use absolute coordinates
M83 ; use relative distances for extrusion
M900 K0.2 ; Filament gcode LA 1.5
; ; Filament gcode LA 1.0
M107
;LAYER_CHANGE
;Z:0.2
;HEIGHT:0.2
;BEFORE_LAYER_CHANGE
G92 E0.0
;0.2


G1 Z.2 F9000
;AFTER_LAYER_CHANGE
;0.2
G1 E-3.2 F4200
G1 Z.4 F9000
G1 X49.771 Y26.23
G1 Z.2
G1 E3.2 F2400
M204 S800
;TYPE:Skirt/Brim
;WIDTH:0.42
G1 F1200
G1 X50.376 Y25.467 E.03052
G1 X64.282 Y13.878 E.5676
G1 X65.228 Y13.398 E.03324
G1 X74.499 Y11.08 E.29964
G1 X75.075 Y11.009 E.01821
G1 X90.635 Y11.042 E.48786
G1 X104.542 Y13.359 E.44205
G1 X105.636 Y13.848 E.03757
G1 X117.225 Y23.119 E.46534
G1 X117.866 Y23.912 E.03198
G1 X124.82 Y37.819 E.48751
G1 X125.071 Y38.882 E.03425
G1 X125.061 Y63.539 E.77308
G1 X119.089 Y128.904 E2.05802
G1 X118.977 Y129.439 E.01715
G1 X116.659 Y136.393 E.22981
G1 X116.085 Y137.322 E.03425
G1 X104.495 Y148.911 E.51388
G1 X103.566 Y149.485 E.03425
G1 X96.613 Y151.803 E.22981
G1 X95.861 Y151.925 E.02388
G1 X76.057 Y151.925 E.62096
G1 X75.305 Y151.803 E.02388
G1 X68.352 Y149.485 E.22981
G1 X67.422 Y148.911 E.03425
G1 X55.833 Y137.322 E.51388
G1 X55.259 Y136.393 E.03425
M73 P0 R62
G1 X52.941 Y129.439 E.22981
G1 X44.903 Y65.937 E2.00696
G1 X44.885 Y36.564 E.92096
G1 X45.136 Y35.501 E.03425
G1 X49.744 Y26.284 E.32312
M204 S1250
; printing object STATIC-CRANK-SMALL.stl id:0 copy 0
G1 E-2.24 F4200
;WIPE_START
G1 F7200
G1 X50.376 Y25.467 E-.57201
G1 X50.847 Y25.074 E-.33999
;WIPE_END
G1 E-.048 F4200
G1 Z.4 F9000
G1 X54.945 Y34.878
G1 Z.2
G1 E3.2 F2400
M204 S800
;TYPE:Support material interface
;WIDTH:0.35
G1 F1200
G1 X54.945 Y32.56 E.05918
G1 X55.463 Y32.56 E.01322
G1 X55.463 Y34.878 E.05918
G1 X55.98 Y34.878 E.01322
G1 X55.98 Y32.56 E.05918
G1 X56.498 Y32.56 E.01322
G1 X56.498 Y32.934 E.00955
G1 X56.244 Y33.338 E.01218
G1 X56.351 Y33.706 E.0098
G1 X56.498 Y33.778 E.00418
G1 X56.498 Y34.878 E.02809
G1 X57.016 Y34.878 E.01322
G1 X57.016 Y34.027 E.02172
M204 S1250
G1 E-2.24 F4200
;WIPE_START
G1 F7200
G1 X57.016 Y34.878 E-.47148
G1 X56.498 Y34.878 E-.28695
G1 X56.498 Y34.601 E-.15357
;WIPE_END
G1 E-.048 F4200
G1 Z.4 F9000
G1 X54.57 Y40.443
G1 Z.2
G1 E3.2 F2400
M204 S800
G1 F1200
G1 X54.846 Y40.576 E.00782
G1 X54.846 Y39.513 E.02714
G1 X54.427 Y39.513 E.0107
G1 X54.427 Y40.374 E.02199
G1 X53.909 Y40.125 E.01467
G1 X53.909 Y39.513 E.01562
G1 X53.391 Y39.513 E.01322
G1 X53.391 Y39.876 E.00925
G1 X53.027 Y40.018 E.00999
G1 X52.873 Y40.458 E.0119
G1 X52.873 Y39.513 E.02412
G1 X52.528 Y39.513 E.00881
G1 X52.528 Y41.55 E.052
G1 X52.822 Y40.609 E.02518
M204 S1250
G1 E-2.24 F4200
;WIPE_START
G1 F7200
G1 X52.528 Y41.55 E-.54646
G1 X52.528 Y40.89 E-.36554
;WIPE_END
G1 E-.048 F4200
G1 Z.4 F9000
G1 X52.715 Y62.691
G1 Z.2
G1 E3.2 F2400
M204 S800
G1 F1200
G1 X52.528 Y62.691 E.00476
G1 X52.528 Y60.654 E.05203
G1 X52.873 Y61.746 E.02924
G1 X52.873 Y62.691 E.02415
G1 X53.391 Y62.691 E.01322
G1 X53.391 Y62.328 E.00928
G1 X53.909 Y62.078 E.01467
M73 P1 R62
G1 X53.909 Y62.691 E.01565
G1 X54.427 Y62.691 E.01322
G1 X54.427 Y61.829 E.02202
G1 X54.846 Y61.627 E.01188
G1 X54.846 Y62.691 E.02717
G1 X54.586 Y62.691 E.00665
M204 S1250
G1 E-2.24 F4200
;WIPE_START
G1 F7200
G1 X54.846 Y62.691 E-.14426
G1 X54.846 Y61.627 E-.58975
G1 X54.557 Y61.767 E-.17799
;WIPE_END
G1 E-.048 F4200
G1 Z.4 F9000
G1 X54.945 Y67.327
G1 Z.2
G1 E3.2 F2400
M204 S800
G1 F1200
G1 X54.945 Y69.645 E.05918
G1 X55.463 Y69.645 E.01322
G1 X55.463 Y67.327 E.05918
G1 X55.98 Y67.327 E.01322
G1 X55.98 Y69.645 E.05918
G1 X56.498 Y69.645 E.01322
G1 X56.498 Y69.269 E.00959
G1 X56.244 Y68.866 E.01217
G1 X56.35 Y68.497 E.00981
G1 X56.498 Y68.426 E.00418
G1 X56.498 Y67.327 E.02806
G1 X57.016 Y67.327 E.01322
G1 X57.016 Y68.177 E.02169
G1 X56.641 Y68.357 E.01062
M204 S1250
G1 E-2.24 F4200
;WIPE_START
G1 F7200
G1 X57.016 Y68.177 E-.23043
G1 X57.016 Y67.327 E-.4708
G1 X56.636 Y67.327 E-.21077
;WIPE_END
G1 E-.048 F4200
G1 Z.4 F9000
G1 X74.201 Y81.234
G1 Z.2
G1 E3.2 F2400
M204 S800
G1 F1200
G1 X74.104 Y81.66 E.01115
G1 X74.104 Y83.552 E.04831
G1 X74.621 Y83.552 E.01322
G1 X74.621 Y81.234 E.05918
G1 X75.139 Y81.234 E.01322
G1 X75.139 Y83.552 E.05918
G1 X75.657 Y83.552 E.01322
G1 X75.657 Y81.234 E.05918
M204 S1250
G1 E-2.24 F4200
;WIPE_START
G1 F7200
G1 X75.657 Y82.88 E-.912
;WIPE_END
G1 E-.048 F4200
G1 Z.4 F9000
G1 X73.849 Y82.536
G1 Z.2
G1 E3.2 F2400
M204 S800
G1 F1200
G1 X73.586 Y82.681 E.00769
G1 X73.586 Y83.552 E.02222
G1 X73.389 Y83.552 E.00504
G1 X73.389 Y82.622 E.02375
G1 X73.437 Y82.638 E.0013
M204 S1250
G1 E-2.24 F4200
;WIPE_START
G1 F7200
G1 X73.389 Y82.622 E-.02824
G1 X73.389 Y83.552 E-.51545
G1 X73.586 Y83.552 E-.10931
G1 X73.586 Y83.084 E-.25901
;WIPE_END
G1 E-.048 F4200
G1 Z.4 F9000
G1 X80.676 Y85.87
G1 Z.2
G1 E3.2 F2400
M204 S800
G1 F1200
G1 X80.342 Y85.87 E.00853
G1 X80.342 Y83.552 E.05918
G1 X80.69 Y83.552 E.00888
G1 X80.582 Y84.024 E.01237
G1 X80.804 Y84.337 E.00981
G1 X80.835 Y84.341 E.00079
G1 X80.835 Y85.87 E.03904
G1 X81.353 Y85.87 E.01322
G1 X81.353 Y84.398 E.03756
G1 X81.871 Y84.444 E.01327
G1 X81.871 Y85.87 E.03641
G1 X82.389 Y85.87 E.01322
G1 X82.389 Y84.481 E.03545
G1 X82.66 Y84.498 E.00694
G1 X82.66 Y85.87 E.03502
G1 X82.547 Y85.87 E.00287
M204 S1250
G1 E-2.24 F4200
;WIPE_START
G1 F7200
G1 X82.66 Y85.87 E-.06227
G1 X82.66 Y84.498 E-.76004
G1 X82.498 Y84.488 E-.08969
;WIPE_END
G1 E-.048 F4200
G1 Z.4 F9000
G1 X101.389 Y81.234
G1 Z.2
G1 E3.2 F2400
M204 S800
G1 F1200
G1 X101.202 Y81.234 E.00476
G1 X101.202 Y80.136 E.02804
G1 X101.548 Y79.936 E.01019
G1 X101.548 Y81.234 E.03314
G1 X102.065 Y81.234 E.01322
G1 X102.065 Y79.624 E.04109
G1 X102.329 Y79.459 E.00795
M204 S1250
G1 X102.443 Y79.244 F9000
M204 S800
G1 F1200
G1 X102.48 Y79.026 E.00565
G1 X102.393 Y78.916 E.00358
G1 X102.583 Y78.916 E.00486
G1 X102.583 Y81.234 E.05918
G1 X103.101 Y81.234 E.01322
G1 X103.101 Y78.916 E.05918
G1 X103.52 Y78.916 E.0107
G1 X103.52 Y81.234 E.05918
G1 X103.26 Y81.234 E.00665
M204 S1250
G1 E-2.24 F4200
;WIPE_START
G1 F7200
G1 X103.52 Y81.234 E-.14424
G1 X103.52 Y79.848 E-.76776
;WIPE_END
G1 E-.048 F4200
G1 Z.4 F9000
G1 X106.049 Y74.28
G1 Z.2
G1 E3.2 F2400
M204 S800
G1 F1200
G1 X105.838 Y74.28 E.00539
G1 X105.838 Y76.598 E.05918
G1 X106.208 Y76.598 E.00944
G1 X106.208 Y74.28 E.05918
G1 X106.726 Y74.28 E.01322
G1 X106.726 Y76.598 E.05918
G1 X107.243 Y76.598 E.01322
G1 X107.243 Y74.28 E.05918
G1 X107.448 Y74.28 E.00521
G1 X107.761 Y74.674 E.01285
G1 X107.761 Y76.598 E.04914
G1 X108.279 Y76.598 E.01322
G1 X108.279 Y74.715 E.04808
G1 X108.708 Y74.28 E.01561
G1 X108.797 Y74.28 E.00226
G1 X108.797 Y76.598 E.05918
G1 X109.315 Y76.598 E.01322
G1 X109.315 Y74.28 E.05918
G1 X109.832 Y74.28 E.01322
G1 X109.832 Y76.598 E.05918
G1 X110.35 Y76.598 E.01322
G1 X110.35 Y74.28 E.05918
M204 S1250
G1 E-2.24 F4200
;WIPE_START
G1 F7200
G1 X110.35 Y75.926 E-.912
;WIPE_END
G1 E-.048 F4200
G1 Z.4 F9000
G1 X122.694 Y63.322
G1 Z.2
G1 E3.2 F2400
M204 S800
;TYPE:Support material
;WIDTH:0.42
G1 F1200
G1 X118.058 Y63.322 E.14535
G1 X118.058 Y65.64 E.07267
G1 X115.74 Y65.64 E.07267
G1 X115.74 Y77.229 E.36337
G1 X106.469 Y77.229 E.29069
G1 X106.469 Y81.547 E.13538
G1 X104.151 Y81.547 E.07267
G1 X104.151 Y86.5 E.15531
G1 X95.936 Y86.5 E.25759
G1 X95.936 Y84.183 E.07267
G1 X92.562 Y84.183 E.10578
G1 X92.562 Y86.5 E.07267
G1 X90.244 Y86.5 E.07267
G1 X90.244 Y88.818 E.07267
G1 X75.075 Y88.818 E.47561
G1 X75.075 Y86.5 E.07267
G1 X65.804 Y86.5 E.29069
G1 X65.804 Y81.865 E.14535
G1 X63.486 Y81.865 E.07267
G1 X63.486 Y79.547 E.07267
G1 X61.169 Y79.547 E.07267
G1 X61.169 Y77.229 E.07267
G1 X56.533 Y77.229 E.14535
G1 X56.533 Y74.911 E.07267
G1 X51.897 Y74.911 E.14535
G1 X51.897 Y67.958 E.21802
G1 X49.579 Y67.958 E.07267
G1 X49.579 Y65.64 E.07267
G1 X47.262 Y65.64 E.07267
G1 X47.262 Y52.789 E.40294
G1 X49.579 Y52.789 E.07267
G1 X49.579 Y49.416 E.10578
G1 X47.262 Y49.416 E.07267
G1 X47.262 Y36.564 E.40294
G1 X49.579 Y36.564 E.07267
G1 X49.579 Y34.247 E.07267
G1 X51.897 Y34.247 E.07267
G1 X51.897 Y27.293 E.21802
G1 X56.533 Y27.293 E.14535
G1 X56.533 Y24.975 E.07267
G1 X61.169 Y24.975 E.14535
G1 X61.169 Y22.658 E.07267
G1 X63.486 Y22.658 E.07267
G1 X63.486 Y20.34 E.07267
G1 X65.804 Y20.34 E.07267
G1 X65.804 Y15.704 E.14535
G1 X75.075 Y15.704 E.29069
G1 X75.075 Y13.386 E.07267
G1 X90.244 Y13.386 E.47561
G1 X90.244 Y15.704 E.07267
G1 X92.562 Y15.704 E.07267
G1 X92.562 Y18.022 E.07267
G1 X95.936 Y18.022 E.10578
G1 X95.936 Y15.704 E.07267
G1 X104.151 Y15.704 E.25759
G1 X104.151 Y20.658 E.15531
G1 X106.469 Y20.658 E.07267
G1 X106.469 Y24.975 E.13538
G1 X115.74 Y24.975 E.29069
G1 X115.74 Y36.564 E.36337
G1 X118.058 Y36.564 E.07267
G1 X118.058 Y38.882 E.07267
G1 X122.694 Y38.882 E.14535
G1 X122.694 Y49.098 E.3203
G1 X120.114 Y49.098 E.08089
G1 X120.114 Y46.098 E.09406
G1 X117.539 Y46.098 E.08073
G1 X117.226 Y44.348 E.05574
G1 X117.097 Y44.173 E.00682
G1 X115.863 Y43.468 E.04453
G1 X114.965 Y42.837 E.03444
G1 X113.979 Y41.992 E.04069
G1 X113.212 Y41.207 E.03444
G1 X112.456 Y40.277 E.03757
G1 X111.79 Y39.281 E.03757
G1 X111.219 Y38.227 E.03759
G1 X110.748 Y37.124 E.03759
G1 X110.381 Y35.984 E.03757
G1 X110.121 Y34.814 E.03757
G1 X109.982 Y33.725 E.03444
G1 X109.932 Y32.428 E.04069
G1 X109.996 Y31.331 E.03444
G1 X110.209 Y29.927 E.04453
G1 X110.153 Y29.717 E.00682
G1 X109.539 Y29.004 E.02953
G1 X108.889 Y28.293 E.03018
G1 X110.843 Y28.293 E.06126
G1 X110.843 Y25.237 E.09581
G1 X105.469 Y25.237 E.16849
G1 X105.469 Y28.293 E.09581
G1 X107.311 Y28.293 E.05775
G1 X99.529 Y38.051 E.39131
G1 X99.112 Y38.494 E.01909
G1 X98.644 Y38.848 E.01839
G1 X98.141 Y39.113 E.01783
G1 X97.567 Y39.303 E.01895
G1 X97.005 Y39.39 E.01783
G1 X96.418 Y39.385 E.01839
G1 X95.841 Y39.282 E.01839
G1 X95.288 Y39.086 E.01839
G1 X94.761 Y38.79 E.01895
G1 X94.313 Y38.432 E.01798
G1 X93.933 Y38.009 E.01783
G1 X93.606 Y37.501 E.01895
G1 X93.378 Y36.96 E.0184
G1 X93.242 Y36.389 E.01839
G1 X93.202 Y35.822 E.01783
G1 X93.256 Y35.238 E.01839
G1 X93.413 Y34.654 E.01895
G1 X93.647 Y34.136 E.01783
G1 X93.986 Y33.63 E.01909
G1 X101.939 Y23.658 E.39994
G1 X103.889 Y23.658 E.06114
G1 X103.889 Y20.602 E.09581
G1 X100.833 Y20.602 E.09581
G1 X100.833 Y22.002 E.0439
G1 X99.657 Y21.372 E.04183
G1 X99.439 Y21.365 E.00682
G1 X98.12 Y21.89 E.04454
G1 X97.066 Y22.199 E.03443
G1 X95.791 Y22.443 E.0407
G1 X94.698 Y22.553 E.03443
G1 X93.5 Y22.564 E.03757
G1 X92.306 Y22.463 E.03757
G1 X91.126 Y22.253 E.03759
G1 X89.97 Y21.934 E.03759
G1 X88.943 Y21.546 E.03443
G1 X87.773 Y20.983 E.04069
G1 X86.75 Y20.359 E.03757
G1 X85.79 Y19.643 E.03757
G1 X84.9 Y18.841 E.03757
G1 X84.007 Y17.867 E.04141
G1 X83.808 Y17.78 E.00682
G1 X83.029 Y17.81 E.02445
G1 X83.029 Y15.966 E.0578
G1 X79.973 Y15.966 E.09581
G1 X79.973 Y19.022 E.09581
G1 X80.902 Y19.022 E.02911
G1 X83.7 Y31.282 E.3943
G1 X83.786 Y31.885 E.01909
G1 X83.771 Y32.472 E.01839
G1 X83.665 Y33.03 E.01783
G1 X83.456 Y33.598 E.01895
G1 X83.173 Y34.091 E.01783
G1 X82.803 Y34.546 E.01839
G1 X82.348 Y34.944 E.01895
G1 X81.865 Y35.244 E.01783
G1 X81.322 Y35.467 E.01839
G1 X80.746 Y35.599 E.01854
G1 X80.16 Y35.633 E.01839
G1 X79.577 Y35.57 E.01839
G1 X79.029 Y35.418 E.01783
G1 X78.481 Y35.162 E.01896
G1 X77.999 Y34.828 E.01839
G1 X77.589 Y34.433 E.01783
G1 X77.239 Y33.963 E.01839
G1 X76.972 Y33.44 E.01839
G1 X76.788 Y32.86 E.01909
G1 X74.158 Y21.34 E.3705
G1 X76.075 Y21.34 E.06011
G1 X76.075 Y18.284 E.09581
G1 X73.02 Y18.284 E.09581
G1 X73.02 Y19.845 E.04893
G1 X71.633 Y20.392 E.04674
G1 X70.74 Y20.784 E.03058
G1 X70.598 Y20.949 E.00682
G1 X70.221 Y22.215 E.04141
G1 X69.77 Y23.325 E.03757
G1 X69.219 Y24.389 E.03757
G1 X68.571 Y25.397 E.03757
G1 X67.832 Y26.34 E.03757
G1 X67.009 Y27.211 E.03757
G1 X66.109 Y28.003 E.03759
G1 X65.139 Y28.707 E.03759
G1 X64.109 Y29.319 E.03757
G1 X63.117 Y29.79 E.03444
G1 X61.901 Y30.243 E.04069
G1 X60.742 Y30.548 E.03757
G1 X59.659 Y30.73 E.03444
G1 X58.242 Y30.834 E.04453
G1 X58.05 Y30.935 E.00682
G1 X57.143 Y32.191 E.04855
G1 X54.477 Y32.191 E.0836
G1 X54.477 Y35.247 E.09581
G1 X57.533 Y35.247 E.09581
G1 X57.533 Y34.138 E.03475
G1 X68.539 Y39.438 E.38301
G1 X69.063 Y39.747 E.01909
G1 X69.513 Y40.124 E.01839
G1 X69.883 Y40.556 E.01783
G1 X70.196 Y41.073 E.01895
G1 X70.406 Y41.602 E.01783
G1 X70.531 Y42.175 E.0184
G1 X70.56 Y42.761 E.01839
G1 X70.487 Y43.361 E.01895
G1 X70.328 Y43.907 E.01783
G1 X70.071 Y44.439 E.01854
G1 X69.733 Y44.919 E.01839
G1 X69.32 Y45.335 E.01839
G1 X68.844 Y45.678 E.0184
G1 X68.318 Y45.938 E.01839
G1 X67.774 Y46.103 E.01783
G1 X67.192 Y46.181 E.01839
G1 X66.588 Y46.158 E.01895
G1 X66.031 Y46.044 E.01783
G1 X65.462 Y45.826 E.01909
G1 X55.215 Y40.891 E.35661
G1 X55.215 Y39.144 E.05478
G1 X52.159 Y39.144 E.09581
G1 X52.159 Y42.2 E.09581
G1 X52.469 Y42.2 E.00972
G1 X52.25 Y43.025 E.02677
G1 X52.291 Y43.239 E.00682
G1 X53.097 Y44.409 E.04454
G1 X53.632 Y45.368 E.03443
G1 X54.154 Y46.556 E.04069
G1 X54.504 Y47.597 E.03444
G1 X54.781 Y48.763 E.03757
G1 X54.949 Y49.949 E.03757
G1 X55.007 Y51.147 E.03759
G1 X54.953 Y52.344 E.03759
G1 X54.789 Y53.531 E.03757
G1 X54.515 Y54.698 E.03757
G1 X54.168 Y55.739 E.03443
G1 X53.65 Y56.93 E.04069
G1 X53.117 Y57.89 E.03443
G1 X52.315 Y59.062 E.04454
G1 X52.275 Y59.276 E.00682
G1 X52.47 Y60.005 E.02365
G1 X52.159 Y60.005 E.00974
G1 X52.159 Y63.06 E.09581
G1 X55.215 Y63.06 E.09581
G1 X55.215 Y61.312 E.05482
G1 X65.462 Y56.377 E.35661
G1 X66.031 Y56.159 E.01909
M73 P2 R62
G1 X66.588 Y56.046 E.01783
G1 X67.192 Y56.023 E.01895
G1 X67.774 Y56.1 E.01839
G1 X68.318 Y56.266 E.01783
G1 X68.844 Y56.525 E.0184
G1 X69.32 Y56.868 E.01839
G1 X69.733 Y57.285 E.01839
G1 X70.071 Y57.764 E.01839
G1 X70.328 Y58.297 E.01854
G1 X70.487 Y58.843 E.01783
G1 X70.56 Y59.443 E.01895
G1 X70.531 Y60.029 E.01839
G1 X70.406 Y60.602 E.0184
G1 X70.196 Y61.131 E.01783
G1 X69.883 Y61.648 E.01895
G1 X69.513 Y62.079 E.01783
G1 X69.063 Y62.456 E.01839
G1 X68.539 Y62.765 E.01909
G1 X57.533 Y68.065 E.38301
G1 X57.533 Y66.958 E.03471
G1 X54.477 Y66.958 E.09581
G1 X54.477 Y70.014 E.09581
G1 X57.144 Y70.014 E.08362
G1 X58.111 Y71.348 E.05168
G1 X58.304 Y71.449 E.00682
G1 X59.721 Y71.549 E.04454
G1 X60.804 Y71.728 E.03443
G1 X61.964 Y72.029 E.03757
G1 X63.182 Y72.478 E.04069
G1 X64.175 Y72.947 E.03443
G1 X65.207 Y73.555 E.03757
G1 X66.179 Y74.257 E.03759
G1 X67.082 Y75.045 E.03759
G1 X67.908 Y75.914 E.03757
G1 X68.649 Y76.855 E.03757
G1 X69.3 Y77.861 E.03757
G1 X69.855 Y78.923 E.03757
G1 X70.309 Y80.032 E.03757
G1 X70.69 Y81.296 E.04141
G1 X70.832 Y81.461 E.00682
G1 X71.695 Y81.837 E.02953
G1 X73.02 Y82.359 E.04463
G1 X73.02 Y83.921 E.04897
G1 X76.075 Y83.921 E.09581
G1 X76.075 Y80.865 E.09581
G1 X74.158 Y80.865 E.06012
G1 X76.788 Y69.343 E.37054
G1 X76.972 Y68.763 E.01909
G1 X77.239 Y68.241 E.01839
G1 X77.589 Y67.77 E.01839
G1 X78.012 Y67.363 E.0184
G1 X78.481 Y67.041 E.01783
G1 X79.012 Y66.792 E.01839
G1 X79.577 Y66.633 E.01839
G1 X80.178 Y66.571 E.01895
G1 X80.746 Y66.605 E.01783
G1 X81.322 Y66.736 E.01854
G1 X81.865 Y66.959 E.01839
G1 X82.363 Y67.269 E.01839
G1 X82.803 Y67.657 E.0184
G1 X83.173 Y68.112 E.01839
