; generated by PrusaSlicer 2.5.0+win64 on 2022-11-12 at 22:45:49 UTC


;
;
; 

; external perimeters extrusion width = 0.45mm
; perimeters extrusion width = 0.45mm
; infill extrusion width = 0.45mm
; solid infill extrusion width = 0.45mm
; top infill extrusion width = 0.40mm
; support material extrusion width = 0.35mm
; first layer extrusion width = 0.42mm

; external perimeters extrusion width = 0.45mm
; perimeters extrusion width = 0.45mm
; infill extrusion width = 0.45mm
; solid infill extrusion width = 0.45mm
; top infill extrusion width = 0.40mm
; support material extrusion width = 0.35mm
; first layer extrusion width = 0.42mm

; external perimeters extrusion width = 0.45mm
; perimeters extrusion width = 0.45mm
; infill extrusion width = 0.45mm
; solid infill extrusion width = 0.45mm
; top infill extrusion width = 0.40mm
; support material extrusion width = 0.35mm
; first layer extrusion width = 0.42mm

; external perimeters extrusion width = 0.45mm
; perimeters extrusion width = 0.45mm
; infill extrusion width = 0.45mm
; solid infill extrusion width = 0.45mm
; top infill extrusion width = 0.40mm
; support material extrusion width = 0.35mm
; first layer extrusion width = 0.42mm

M73 P0 R110
M73 Q0 S111
M201 X1000 Y1000 Z200 E5000 ; sets maximum accelerations, mm/sec^2
M203 X200 Y200 Z12 E120 ; sets maximum feedrates, mm / sec
M204 P1250 R1250 T1250 ; sets acceleration (P, T) and retract acceleration (R), mm/sec^2
M205 X8.00 Y8.00 Z0.40 E4.50 ; sets the jerk limits, mm/sec
M205 S0 T0 ; sets the minimum extruding and travel feed rate, mm/sec
M107
;TYPE:Custom
M862.3 P "MK3S" ; printer model check
M862.1 P0.4 ; nozzle diameter check
M115 U3.11.0 ; tell printer latest fw version
G90 ; use absolute coordinates
M83 ; extruder relative mode
M104 S215 ; set extruder temp
M140 S60 ; set bed temp
M190 S60 ; wait for bed temp
M109 S215 ; wait for extruder temp
G28 W ; home all without mesh bed level
G80 ; mesh bed leveling

G1 Z0.2 F720
G1 Y-3 F1000 ; go outside print area
G92 E0
G1 X60 E9 F1000 ; intro line
G1 X100 E12.5 F1000 ; intro line

G92 E0
M221 S95

; Don't change E values below. Excessive value can damage the printer.
M907 E430 ; set extruder motor current
G21 ; set units to millimeters
G90 ; use absolute coordinates
M83 ; use relative distances for extrusion
M900 K0.05 ; Filament gcode LA 1.5
M900 K30 ; Filament gcode LA 1.0
M107
;LAYER_CHANGE
;Z:0.2
;HEIGHT:0.2
;BEFORE_LAYER_CHANGE
G92 E0.0
;0.2


G1 E-.8 F2100
G1 Z.4 F720
;AFTER_LAYER_CHANGE
;0.2
G1 X86.1 Y35.553 F10800
G1 Z.2 F720
G1 E.8 F2100
M204 S800
;TYPE:Skirt/Brim
;WIDTH:0.42
G1 F1200
G1 X86.796 Y33.872 E.05704
G1 X89.225 Y31.444 E.10768
G1 X90.154 Y30.87 E.03425
G1 X97.107 Y28.552 E.22981
G1 X97.859 Y28.43 E.02388
G1 X147.951 Y28.43 E1.57061
G1 X148.528 Y28.501 E.01821
G1 X157.799 Y30.819 E.29964
G1 X158.903 Y31.444 E.03979
G1 X161.332 Y33.872 E.10768
G1 X161.962 Y34.997 E.04043
G1 X168.249 Y61.139 E.84302
G1 X168.315 Y61.638 E.01577
G1 X169.527 Y112.178 E1.58513
G1 X169.814 Y127.932 E.49402
G1 X169.742 Y140.048 E.3799
G1 X169.402 Y141.25 E.03916
G1 X167.823 Y143.876 E.09608
G1 X166.885 Y144.758 E.04038
G1 X164.661 Y145.917 E.07861
G1 X163.99 Y146.148 E.02226
G1 X159.947 Y146.841 E.12861
G1 X153.644 Y146.758 E.19764
G1 X102.807 Y145.409 E1.59455
M73 Q0 S110
G1 X101.189 Y144.714 E.05521
G1 X98.201 Y141.726 E.13247
G1 X97.616 Y140.762 E.03535
G1 X86.39 Y105.299 E1.16632
G1 X86.279 Y104.588 E.02254
G1 X86.1 Y35.613 E2.16268
M204 S1000
;WIPE_START
G1 F8640
M73 P0 R109
G1 X86.796 Y33.872 E-.43291
G1 X87.798 Y32.871 E-.32709
;WIPE_END
G1 E-.04 F2100
G1 Z.6 F720
G1 X95.431 Y37.838 F10800
G1 Z.2 F720
G1 E.8 F2100
M204 S800
G1 F1200
G1 X95.795 Y36.312 E.04922
G1 X96.579 Y35.101 E.04523
G1 X97.671 Y34.201 E.04435
G1 X98.821 Y33.678 E.03962
G1 X100.959 Y33.024 E.0701
G1 X101.823 Y32.807 E.02793
G1 X103.042 Y32.59 E.0388
G1 X106.384 Y31.671 E.10869
G1 X139.023 Y31.667 E1.02339
G1 X142.698 Y32.615 E.11898
G1 X144.36 Y32.897 E.05285
G1 X146.976 Y33.639 E.08527
G1 X148.55 Y34.398 E.0548
G1 X149.735 Y35.612 E.0532
G1 X150.441 Y37.237 E.05552
G1 X150.525 Y38.616 E.04333
G1 X150.26 Y39.968 E.04321
G1 X149.474 Y41.365 E.05025
G1 X147.955 Y42.624 E.06186
G1 X146.805 Y43.023 E.03816
G1 X145.606 Y43.161 E.03787
G1 X142.892 Y43.161 E.08508
G1 X141.582 Y43.012 E.04134
G1 X140.939 Y42.966 E.02024
G1 X133.305 Y42.961 E.23933
G1 X131.768 Y42.927 E.04821
G1 X116.416 Y42.881 E.48136
G1 X113.952 Y42.922 E.07726
G1 X113.186 Y42.961 E.02405
G1 X104.967 Y42.963 E.25769
G1 X104.307 Y42.995 E.02072
G1 X103.447 Y43.107 E.02721
G1 X102.628 Y43.157 E.02571
G1 X100.318 Y43.161 E.07243
G1 X98.632 Y42.886 E.05356
G1 X97.15 Y42.08 E.05289
G1 X96.434 Y41.349 E.03208
G1 X95.865 Y40.471 E.03279
G1 X95.413 Y38.721 E.05668
G1 X95.403 Y37.954 E.02407
G1 X95.417 Y37.897 E.00184
M204 S1000
G1 X95.784 Y37.982 F10800
M204 S800
G1 F1200
G1 X96.13 Y36.486 E.04813
G1 X96.842 Y35.373 E.04145
G1 X97.891 Y34.508 E.04261
G1 X98.942 Y34.035 E.03615
G1 X101.065 Y33.386 E.06959
G1 X101.896 Y33.177 E.02686
G1 X103.125 Y32.958 E.03914
G1 X106.46 Y32.042 E.10844
G1 X138.952 Y32.038 E1.01879
G1 X142.619 Y32.984 E.11874
G1 X144.267 Y33.262 E.05238
G1 X146.858 Y33.998 E.08447
G1 X148.306 Y34.687 E.05028
G1 X149.405 Y35.797 E.04898
G1 X150.067 Y37.295 E.05135
G1 X150.15 Y38.568 E.03998
G1 X149.896 Y39.866 E.0415
G1 X149.205 Y41.099 E.0443
G1 X147.798 Y42.28 E.05761
G1 X146.741 Y42.651 E.03512
G1 X145.594 Y42.784 E.03618
G1 X142.903 Y42.784 E.08439
G1 X141.617 Y42.636 E.04058
G1 X140.952 Y42.589 E.02092
G1 X133.308 Y42.584 E.23968
G1 X131.773 Y42.55 E.04814
G1 X116.413 Y42.504 E.48159
G1 X113.939 Y42.545 E.07758
G1 X113.181 Y42.584 E.02381
G1 X104.958 Y42.586 E.25782
G1 X104.274 Y42.619 E.02149
G1 X103.404 Y42.732 E.02749
G1 X102.611 Y42.781 E.02493
G1 X100.332 Y42.784 E.07145
G1 X98.782 Y42.539 E.04921
G1 X97.399 Y41.796 E.04921
G1 X96.718 Y41.099 E.03056
G1 X96.199 Y40.294 E.03002
G1 X95.784 Y38.651 E.05314
G1 X95.776 Y38.041 E.01913
M204 S1000
G1 X96.148 Y38.077 F10800
M204 S800
G1 F1200
G1 X96.466 Y36.661 E.04549
G1 X97.143 Y35.602 E.03943
G1 X98.109 Y34.817 E.039
G1 X99.063 Y34.392 E.03276
G1 X101.171 Y33.748 E.06909
G1 X101.969 Y33.547 E.0258
G1 X103.208 Y33.326 E.03948
G1 X106.535 Y32.412 E.10819
G1 X138.881 Y32.409 E1.01419
G1 X142.541 Y33.353 E.1185
G1 X144.174 Y33.628 E.05191
G1 X146.741 Y34.356 E.08368
G1 X148.064 Y34.978 E.04584
G1 X149.076 Y35.985 E.04475
G1 X149.693 Y37.356 E.04716
G1 X149.776 Y38.52 E.03658
G1 X149.531 Y39.765 E.03977
G1 X148.934 Y40.834 E.0384
G1 X147.638 Y41.937 E.05336
G1 X146.675 Y42.279 E.03204
G1 X145.583 Y42.407 E.03447
G1 X142.914 Y42.407 E.08369
G1 X141.653 Y42.261 E.03982
G1 X140.965 Y42.212 E.0216
G1 X133.31 Y42.207 E.24003
G1 X131.778 Y42.173 E.04806
G1 X116.411 Y42.127 E.48182
G1 X113.926 Y42.168 E.07791
G1 X113.176 Y42.207 E.02356
G1 X104.949 Y42.209 E.25794
G1 X104.24 Y42.243 E.02225
G1 X103.362 Y42.357 E.02778
G1 X102.594 Y42.404 E.02414
G1 X100.347 Y42.407 E.07045
G1 X98.873 Y42.171 E.0468
G1 X97.648 Y41.511 E.04365
G1 X97.024 Y40.878 E.02786
G1 X96.534 Y40.117 E.0284
G1 X96.155 Y38.582 E.04956
G1 X96.149 Y38.137 E.01396
M204 S1000
G1 X96.522 Y38.135 F10800
M204 S800
G1 F1200
G1 X96.804 Y36.833 E.04178
G1 X97.407 Y35.873 E.03555
G1 X98.286 Y35.151 E.03567
G1 X99.185 Y34.749 E.03086
G1 X101.276 Y34.11 E.06858
G1 X102.041 Y33.917 E.02473
G1 X103.291 Y33.695 E.03981
G1 X106.611 Y32.782 E.10794
G1 X138.81 Y32.78 E1.0096
G1 X142.463 Y33.722 E.11827
G1 X144.081 Y33.993 E.05145
G1 X146.624 Y34.715 E.0829
G1 X147.825 Y35.271 E.04147
G1 X148.749 Y36.175 E.04052
G1 X149.32 Y37.419 E.04295
G1 X149.401 Y38.473 E.03313
G1 X149.167 Y39.663 E.03803
G1 X148.662 Y40.571 E.03257
G1 X147.477 Y41.594 E.0491
G1 X146.609 Y41.907 E.02893
G1 X145.572 Y42.03 E.03273
G1 X142.925 Y42.03 E.08299
G1 X141.688 Y41.885 E.03906
G1 X140.979 Y41.835 E.02229
G1 X133.312 Y41.83 E.24039
G1 X131.782 Y41.796 E.04798
G1 X116.408 Y41.75 E.48205
G1 X113.913 Y41.791 E.07823
G1 X113.171 Y41.83 E.02331
G1 X104.94 Y41.832 E.25807
G1 X104.207 Y41.867 E.02302
G1 X103.32 Y41.983 E.02805
G1 X102.577 Y42.027 E.02334
G1 X100.36 Y42.03 E.06949
G1 X99.021 Y41.823 E.04249
G1 X97.896 Y41.225 E.03996
G1 X97.307 Y40.628 E.0263
G1 X96.869 Y39.941 E.02553
G1 X96.527 Y38.515 E.04599
G1 X96.522 Y38.195 E.01004
M204 S1000
G1 X96.895 Y38.191 F10800
M204 S800
G1 F1200
G1 X97.142 Y37.001 E.03809
G1 X97.673 Y36.142 E.03165
G1 X98.465 Y35.484 E.03229
G1 X99.306 Y35.106 E.02893
G1 X101.382 Y34.472 E.06806
G1 X102.114 Y34.287 E.02366
G1 X103.374 Y34.063 E.04015
G1 X106.686 Y33.153 E.10768
G1 X138.786 Y33.157 E1.00647
G1 X142.384 Y34.091 E.11655
G1 X143.988 Y34.359 E.05099
G1 X146.508 Y35.074 E.08214
G1 X147.588 Y35.566 E.03719
G1 X148.423 Y36.367 E.0363
G1 X148.947 Y37.486 E.03872
G1 X149.025 Y38.427 E.02961
G1 X148.803 Y39.56 E.03621
G1 X148.351 Y40.356 E.02872
G1 X147.315 Y41.252 E.04295
G1 X146.541 Y41.535 E.02582
G1 X145.561 Y41.653 E.03097
G1 X142.936 Y41.653 E.08228
G1 X141.724 Y41.51 E.03829
G1 X140.992 Y41.458 E.02298
G1 X133.315 Y41.453 E.24074
G1 X131.787 Y41.419 E.0479
G1 X116.406 Y41.373 E.48228
G1 X113.9 Y41.414 E.07856
G1 X113.166 Y41.453 E.02306
G1 X104.931 Y41.455 E.25819
G1 X104.174 Y41.491 E.02379
G1 X103.278 Y41.608 E.02833
G1 X102.56 Y41.65 E.02255
G1 X100.373 Y41.653 E.06856
G1 X99.167 Y41.474 E.03825
G1 X98.142 Y40.938 E.03627
G1 X97.613 Y40.408 E.02347
G1 X97.204 Y39.766 E.02385
G1 X96.898 Y38.45 E.04237
G1 X96.896 Y38.251 E.00625
M204 S1000
G1 X97.269 Y38.246 F10800
M204 S800
G1 F1200
G1 X97.481 Y37.17 E.03438
G1 X97.977 Y36.367 E.02959
G1 X98.642 Y35.818 E.02705
G1 X99.428 Y35.464 E.02703
G1 X101.488 Y34.834 E.06753
G1 X102.187 Y34.657 E.02259
G1 X103.458 Y34.431 E.0405
G1 X106.712 Y33.53 E.10585
G1 X138.762 Y33.534 E1.0049
G1 X142.305 Y34.461 E.11484
G1 X143.895 Y34.725 E.05054
G1 X146.393 Y35.434 E.08141
G1 X147.354 Y35.863 E.033
G1 X148.099 Y36.564 E.03207
G1 X148.575 Y37.555 E.03447
G1 X148.65 Y38.381 E.02601
G1 X148.439 Y39.455 E.03433
G1 X148.041 Y40.139 E.02481
G1 X147.151 Y40.911 E.03695
G1 X146.473 Y41.164 E.02267
G1 X145.549 Y41.276 E.02919
G1 X142.948 Y41.276 E.08157
G1 X141.76 Y41.134 E.03752
G1 X141.006 Y41.081 E.02369
G1 X133.317 Y41.076 E.24109
G1 X131.792 Y41.042 E.04782
G1 X116.403 Y40.996 E.48251
G1 X113.887 Y41.037 E.07889
G1 X113.161 Y41.076 E.02281
G1 X104.923 Y41.078 E.25831
G1 X104.14 Y41.115 E.02455
G1 X103.236 Y41.233 E.02861
G1 X102.543 Y41.274 E.02175
G1 X100.386 Y41.276 E.06765
G1 X99.31 Y41.124 E.03408
G1 X98.387 Y40.65 E.0325
G1 X97.896 Y40.157 E.02184
G1 X97.541 Y39.594 E.02086
G1 X97.271 Y38.387 E.03877
G1 X97.269 Y38.306 E.00256
M204 S1000
G1 X97.643 Y38.3 F10800
M204 S800
G1 F1200
G1 X97.822 Y37.334 E.03082
G1 X98.244 Y36.635 E.02561
G1 X98.822 Y36.15 E.02364
G1 X99.55 Y35.821 E.02506
G1 X101.594 Y35.196 E.06701
G1 X102.255 Y35.028 E.02138
G1 X103.229 Y34.867 E.03096
G1 X103.553 Y34.796 E.01041
G1 X106.738 Y33.907 E.10366
G1 X138.737 Y33.912 E1.00331
G1 X141.9 Y34.753 E.10263
G1 X142.234 Y34.831 E.01076
G1 X143.803 Y35.09 E.04984
G1 X146.278 Y35.793 E.08069
G1 X147.124 Y36.163 E.02892
G1 X147.778 Y36.764 E.02785
G1 X148.204 Y37.628 E.03021
G1 X148.275 Y38.336 E.02233
G1 X148.076 Y39.349 E.03237
G1 X147.734 Y39.919 E.02083
G1 X146.985 Y40.571 E.03114
G1 X146.404 Y40.792 E.0195
G1 X145.537 Y40.899 E.02737
G1 X142.959 Y40.899 E.08084
G1 X141.796 Y40.759 E.03675
G1 X141.019 Y40.703 E.0244
G1 X133.319 Y40.699 E.24144
G1 X131.797 Y40.665 E.04774
G1 X116.4 Y40.619 E.48274
G1 X113.874 Y40.661 E.07922
G1 X113.156 Y40.699 E.02255
G1 X104.914 Y40.701 E.25843
G1 X104.107 Y40.739 E.02532
G1 X103.194 Y40.858 E.02888
G1 X102.527 Y40.897 E.02094
G1 X100.397 Y40.899 E.06677
G1 X99.449 Y40.772 E.02998
G1 X98.63 Y40.361 E.02874
G1 X98.203 Y39.937 E.01887
G1 X97.879 Y39.422 E.0191
G1 X97.65 Y38.359 E.03406
M204 S1000
G1 X98.023 Y38.305 F10800
M204 S800
G1 F1200
M73 P1 R109
G1 X98.165 Y37.494 E.02582
G1 X98.515 Y36.899 E.02161
G1 X99.003 Y36.482 E.02015
G1 X99.672 Y36.178 E.02305
G1 X101.7 Y35.558 E.06648
G1 X102.324 Y35.399 E.0202
G1 X103.301 Y35.238 E.03102
G1 X103.645 Y35.162 E.01107
G1 X106.764 Y34.284 E.10157
G1 X138.712 Y34.289 E1.00171
M73 Q1 S110
G1 X141.808 Y35.119 E.10052
G1 X142.161 Y35.201 E.01136
G1 X143.71 Y35.456 E.04922
G1 X146.165 Y36.153 E.08001
G1 X146.897 Y36.465 E.02497
G1 X147.459 Y36.968 E.02363
G1 X147.834 Y37.705 E.02594
G1 X147.899 Y38.293 E.01855
G1 X147.713 Y39.241 E.03031
G1 X147.43 Y39.695 E.01677
G1 X146.816 Y40.232 E.02556
G1 X146.333 Y40.421 E.01627
G1 X145.526 Y40.522 E.02551
G1 X142.971 Y40.522 E.08011
G1 X141.832 Y40.383 E.03597
G1 X141.033 Y40.326 E.02511
G1 X133.321 Y40.322 E.24179
G1 X131.801 Y40.288 E.04766
G1 X116.398 Y40.242 E.48297
G1 X113.861 Y40.284 E.07956
G1 X113.151 Y40.322 E.0223
G1 X104.905 Y40.324 E.25855
G1 X104.074 Y40.363 E.02609
G1 X103.152 Y40.483 E.02915
G1 X102.511 Y40.52 E.02013
G1 X100.408 Y40.522 E.06593
G1 X99.585 Y40.419 E.02598
G1 X98.873 Y40.07 E.02486
G1 X98.485 Y39.685 E.01715
G1 X98.217 Y39.253 E.01594
G1 X98.035 Y38.364 E.02847
M204 S1000
G1 X98.405 Y38.292 F10800
M204 S800
G1 F1200
G1 X98.508 Y37.656 E.02023
G1 X98.823 Y37.118 E.01954
G1 X99.183 Y36.814 E.01477
G1 X99.795 Y36.534 E.02109
G1 X101.806 Y35.92 E.06594
G1 X102.394 Y35.77 E.01903
G1 X103.372 Y35.608 E.03108
G1 X103.738 Y35.527 E.01174
G1 X106.79 Y34.661 E.09949
G1 X138.687 Y34.666 E1.00009
G1 X141.716 Y35.485 E.0984
G1 X142.088 Y35.571 E.01197
G1 X143.618 Y35.822 E.0486
G1 X146.05 Y36.512 E.07928
G1 X146.718 Y36.799 E.02279
G1 X147.176 Y37.219 E.01951
G1 X147.48 Y37.839 E.02164
G1 X147.523 Y38.252 E.01301
G1 X147.371 Y39.078 E.02634
G1 X147.155 Y39.436 E.0131
G1 X146.643 Y39.896 E.0216
G1 X146.26 Y40.05 E.01293
G1 X145.514 Y40.145 E.0236
G1 X142.982 Y40.145 E.07937
G1 X141.868 Y40.008 E.03519
G1 X141.046 Y39.949 E.02584
G1 X133.324 Y39.945 E.24214
G1 X131.806 Y39.911 E.04759
G1 X116.395 Y39.865 E.4832
G1 X113.848 Y39.907 E.0799
G1 X113.145 Y39.945 E.02204
G1 X104.896 Y39.947 E.25867
G1 X104.04 Y39.987 E.02685
G1 X103.11 Y40.109 E.02942
G1 X102.495 Y40.143 E.01931
G1 X100.42 Y40.145 E.06507
G1 X99.664 Y40.049 E.02388
G1 X99.117 Y39.781 E.0191
G1 X98.767 Y39.435 E.01543
G1 X98.558 Y39.089 E.01268
G1 X98.416 Y38.351 E.02354
M204 S1000
G1 X98.786 Y38.285 F10800
M204 S800
G1 F1200
G1 X98.777 Y38.236 E.00157
G1 X98.85 Y37.817 E.01331
G1 X99.131 Y37.338 E.01742
G1 X99.362 Y37.147 E.00939
G1 X99.94 Y36.883 E.01994
G1 X101.904 Y36.284 E.06436
G1 X102.464 Y36.14 E.01813
M73 Q1 S109
G1 X103.443 Y35.978 E.03113
G1 X103.83 Y35.893 E.01243
G1 X106.817 Y35.038 E.09739
G1 X138.661 Y35.043 E.99847
G1 X141.624 Y35.85 E.09628
G1 X142.015 Y35.941 E.01259
G1 X143.525 Y36.187 E.04798
G1 X145.935 Y36.871 E.07855
G1 X146.54 Y37.132 E.02065
G1 X146.857 Y37.422 E.01346
G1 X147.11 Y37.92 E.01754
G1 X147.147 Y38.219 E.00941
G1 X147.027 Y38.921 E.02233
G1 X146.876 Y39.181 E.00942
G1 X146.464 Y39.563 E.01763
G1 X146.185 Y39.68 E.00947
G1 X145.501 Y39.768 E.02163
G1 X142.994 Y39.768 E.07861
G1 X141.905 Y39.632 E.03441
G1 X141.06 Y39.572 E.02657
G1 X133.326 Y39.568 E.2425
G1 X131.811 Y39.534 E.04751
G1 X116.393 Y39.488 E.48343
G1 X113.834 Y39.53 E.08023
G1 X113.14 Y39.568 E.02179
G1 X104.887 Y39.57 E.25878
G1 X104.007 Y39.611 E.02762
G1 X103.068 Y39.734 E.02969
G1 X102.479 Y39.767 E.01849
G1 X100.432 Y39.768 E.0642
G1 X99.743 Y39.679 E.02177
G1 X99.361 Y39.492 E.01335
G1 X99.051 Y39.185 E.01366
G1 X98.901 Y38.929 E.0093
G1 X98.796 Y38.344 E.01864
M204 S1000
G1 X99.166 Y38.283 F10800
M204 S800
G1 F1200
G1 X99.154 Y38.207 E.00242
G1 X99.195 Y37.973 E.00746
G1 X99.405 Y37.599 E.01344
G1 X99.545 Y37.478 E.0058
G1 X100.085 Y37.231 E.01863
G1 X102.002 Y36.648 E.06279
G1 X102.534 Y36.511 E.01722
G1 X103.515 Y36.349 E.03118
G1 X103.924 Y36.259 E.01313
G1 X106.843 Y35.415 E.09529
G1 X138.636 Y35.42 E.99683
M73 P1 R108
G1 X141.531 Y36.216 E.09414
G1 X141.942 Y36.312 E.01324
G1 X143.433 Y36.553 E.04735
G1 X145.82 Y37.231 E.0778
G1 X146.361 Y37.466 E.01851
G1 X146.541 Y37.629 E.0076
G1 X146.743 Y38.011 E.01355
G1 X146.77 Y38.192 E.00575
G1 X146.68 Y38.772 E.01838
G1 X146.592 Y38.932 E.00572
