; generated by PrusaSlicer 2.5.0+win64 on 2022-11-12 at 22:52:19 UTC


;
;
; 

; external perimeters extrusion width = 0.45mm
; perimeters extrusion width = 0.45mm
; infill extrusion width = 0.45mm
; solid infill extrusion width = 0.45mm
; top infill extrusion width = 0.40mm
; support material extrusion width = 0.35mm
; first layer extrusion width = 0.42mm

M73 P0 R59
M73 Q0 S59
M201 X1000 Y1000 Z200 E5000 ; sets maximum accelerations, mm/sec^2
M203 X200 Y200 Z12 E120 ; sets maximum feedrates, mm / sec
M204 P1250 R1250 T1250 ; sets acceleration (P, T) and retract acceleration (R), mm/sec^2
M205 X8.00 Y8.00 Z0.40 E4.50 ; sets the jerk limits, mm/sec
M205 S0 T0 ; sets the minimum extruding and travel feed rate, mm/sec
M107
;TYPE:Custom
M862.3 P "MK3S" ; printer model check
M862.1 P0.4 ; nozzle diameter check
M115 U3.11.0 ; tell printer latest fw version
G90 ; use absolute coordinates
M83 ; extruder relative mode
M104 S215 ; set extruder temp
M140 S60 ; set bed temp
M190 S60 ; wait for bed temp
M109 S215 ; wait for extruder temp
G28 W ; home all without mesh bed level
G80 ; mesh bed leveling

G1 Z0.2 F720
G1 Y-3 F1000 ; go outside print area
G92 E0
G1 X60 E9 F1000 ; intro line
G1 X100 E12.5 F1000 ; intro line

G92 E0
M221 S95

; Don't change E values below. Excessive value can damage the printer.
M907 E430 ; set extruder motor current
G21 ; set units to millimeters
G90 ; use absolute coordinates
M83 ; use relative distances for extrusion
M900 K0.05 ; Filament gcode LA 1.5
M900 K30 ; Filament gcode LA 1.0
M107
;LAYER_CHANGE
;Z:0.2
;HEIGHT:0.2
;BEFORE_LAYER_CHANGE
G92 E0.0
;0.2


G1 E-.8 F2100
G1 Z.4 F720
;AFTER_LAYER_CHANGE
;0.2
G1 X94.837 Y73.667 F10800
G1 Z.2 F720
G1 E.8 F2100
M204 S800
;TYPE:Skirt/Brim
;WIDTH:0.42
G1 F1200
G1 X95.727 Y72.685 E.04154
G1 X96.428 Y72.075 E.02915
G1 X97.954 Y71.085 E.05703
G1 X98.792 Y70.69 E.02904
G1 X99.762 Y70.352 E.03221
G1 X100.776 Y70.113 E.03268
G1 X102.013 Y69.977 E.03902
G1 X147.584 Y69.962 E1.42885
G1 X149.406 Y70.149 E.05743
G1 X151.024 Y70.617 E.0528
G1 X152.498 Y71.337 E.05143
G1 X153.436 Y71.968 E.03546
G1 X154.138 Y72.56 E.02878
G1 X155.27 Y73.802 E.0527
G1 X156.154 Y75.192 E.05164
G1 X156.621 Y76.215 E.03525
G1 X156.896 Y77.042 E.02735
G1 X157.197 Y78.497 E.04657
G1 X157.277 Y79.64 E.03593
G1 X157.26 Y125.338 E1.43282
G1 X157.053 Y126.827 E.04713
G1 X156.621 Y128.262 E.04702
G1 X155.965 Y129.629 E.04753
G1 X155.163 Y130.81 E.04476
G1 X154.273 Y131.792 E.04154
G1 X152.996 Y132.826 E.05154
G1 X151.52 Y133.652 E.05301
G1 X150.196 Y134.135 E.04419
G1 X127.272 Y139.415 E.73759
G1 X125.241 Y139.656 E.06414
G1 X124.083 Y139.62 E.03631
G1 X122.728 Y139.415 E.04297
G1 X100.023 Y134.199 E.73044
G1 X98.978 Y133.861 E.03444
G1 X97.953 Y133.392 E.03532
G1 X96.428 Y132.402 E.05702
G1 X95.727 Y131.792 E.02915
G1 X94.837 Y130.81 E.04154
G1 X93.846 Y129.285 E.05702
G1 X93.406 Y128.332 E.0329
G1 X93.077 Y127.34 E.03279
G1 X92.813 Y126.07 E.04065
G1 X92.725 Y124.93 E.03587
G1 X92.74 Y79.139 E1.43573
G1 X92.947 Y77.648 E.0472
G1 X93.378 Y76.217 E.04688
G1 X94.035 Y74.848 E.0476
G1 X94.803 Y73.717 E.04288
M204 S1000
;WIPE_START
G1 F8640
G1 X95.727 Y72.685 E-.31965
G1 X96.428 Y72.075 E-.21466
G1 X97.248 Y71.543 E-.22568
;WIPE_END
G1 E-.04 F2100
G1 Z.6 F720
G1 X96.895 Y75.387 F10800
G1 Z.2 F720
G1 E.8 F2100
M204 S800
G1 F1200
G1 X97.284 Y74.9 E.01956
G1 X98.459 Y73.881 E.04877
G1 X99.019 Y73.537 E.02058
G1 X99.624 Y73.232 E.02124
G1 X100.37 Y72.952 E.02501
G1 X101.171 Y72.749 E.0259
G1 X102.398 Y72.625 E.03865
G1 X147.558 Y72.625 E1.41598
G1 X148.258 Y72.666 E.02196
G1 X148.965 Y72.776 E.02244
G1 X150.278 Y73.189 E.04316
G1 X150.92 Y73.503 E.02242
G1 X151.52 Y73.868 E.02199
G1 X152.376 Y74.558 E.03449
G1 X153.302 Y75.623 E.04424
G1 X153.719 Y76.288 E.02461
G1 X154.037 Y76.931 E.0225
G1 X154.42 Y78.093 E.03834
G1 X154.559 Y78.872 E.02481
G1 X154.608 Y79.517 E.02031
G1 X154.611 Y124.876 E1.42217
G1 X154.566 Y125.553 E.02129
G1 X154.463 Y126.204 E.02067
G1 X154.04 Y127.539 E.04391
G1 X153.731 Y128.167 E.02194
G1 X153.373 Y128.755 E.02159
G1 X152.717 Y129.576 E.03293
G1 X151.699 Y130.48 E.0427
G1 X150.928 Y130.969 E.02862
G1 X150.224 Y131.309 E.02451
G1 X149.2 Y131.645 E.03381
G1 X148.343 Y131.8 E.02729
G1 X147.673 Y131.849 E.02107
G1 X132.469 Y131.852 E.47672
G1 X132.07 Y132.72 E.02995
G1 X131.648 Y133.432 E.02597
G1 X131.15 Y134.103 E.02618
G1 X130.521 Y134.777 E.0289
G1 X129.719 Y135.446 E.03275
G1 X128.764 Y136.052 E.03546
G1 X128.028 Y136.398 E.02552
G1 X127.323 Y136.649 E.02344
G1 X126.527 Y136.848 E.02574
G1 X125.809 Y136.954 E.02274
G1 X125.082 Y136.995 E.02283
G1 X124.233 Y136.958 E.02666
G1 X123.469 Y136.847 E.0242
G1 X122.721 Y136.663 E.02417
G1 X121.992 Y136.406 E.02422
G1 X121.254 Y136.062 E.02554
G1 X120.549 Y135.639 E.02577
G1 X119.952 Y135.196 E.0233
G1 X119.41 Y134.711 E.0228
G1 X118.84 Y134.091 E.0264
G1 X118.395 Y133.496 E.02332
G1 X118 Y132.851 E.02371
G1 X117.668 Y132.171 E.02371
G1 X117.546 Y131.85 E.01077
G1 X101.98 Y131.833 E.48806
G1 X100.756 Y131.634 E.03889
G1 X99.615 Y131.242 E.03783
G1 X99.037 Y130.95 E.0203
G1 X98.478 Y130.607 E.02056
G1 X97.661 Y129.954 E.03281
G1 X96.642 Y128.779 E.04875
G1 X96.299 Y128.22 E.02058
G1 X95.994 Y127.615 E.02124
G1 X95.714 Y126.868 E.02501
G1 X95.511 Y126.067 E.0259
G1 X95.387 Y124.841 E.03865
G1 X95.389 Y79.601 E1.41845
G1 X95.434 Y78.924 E.02128
G1 X95.538 Y78.271 E.02073
G1 X95.959 Y76.94 E.04377
G1 X96.269 Y76.31 E.02201
G1 X96.627 Y75.722 E.02159
G1 X96.857 Y75.434 E.01156
M204 S1000
G1 X97.151 Y75.669 F10800
M204 S800
G1 F1200
G1 X97.568 Y75.149 E.0209
G1 X98.67 Y74.194 E.04573
G1 X99.209 Y73.863 E.01985
G1 X99.784 Y73.574 E.02016
G1 X100.492 Y73.309 E.02372
G1 X101.25 Y73.119 E.02449
G1 X102.407 Y73.002 E.03647
G1 X147.553 Y73.002 E1.41551
G1 X148.226 Y73.042 E.02115
G1 X148.892 Y73.146 E.02114
G1 X150.15 Y73.545 E.04137
G1 X150.746 Y73.838 E.02082
G1 X151.312 Y74.183 E.02081
G1 X152.126 Y74.841 E.03279
G1 X153.008 Y75.858 E.04221
G1 X153.385 Y76.464 E.02239
G1 X153.683 Y77.063 E.02097
G1 X154.058 Y78.198 E.03748
G1 X154.184 Y78.91 E.02267
G1 X154.231 Y79.525 E.01934
G1 X154.234 Y124.857 E1.42137
G1 X154.192 Y125.502 E.02027
M73 P1 R59
M73 Q1 S59
G1 X154.092 Y126.131 E.01995
G1 X153.695 Y127.385 E.04126
G1 X153.404 Y127.978 E.0207
G1 X153.057 Y128.548 E.02094
G1 X152.433 Y129.327 E.03128
G1 X151.46 Y130.187 E.04071
G1 X150.754 Y130.635 E.02622
G1 X150.094 Y130.955 E.02299
G1 X149.095 Y131.283 E.03299
G1 X148.306 Y131.425 E.02513
G1 X147.666 Y131.472 E.02012
G1 X132.184 Y131.474 E.4854
G1 X132.074 Y131.807 E.01098
G1 X131.74 Y132.536 E.02515
G1 X131.329 Y133.232 E.02534
G1 X130.854 Y133.869 E.02492
G1 X130.27 Y134.495 E.02684
G1 X129.506 Y135.135 E.03124
G1 X128.593 Y135.716 E.03394
G1 X127.876 Y136.053 E.02485
G1 X127.206 Y136.291 E.02229
G1 X126.463 Y136.476 E.02402
G1 X125.763 Y136.58 E.02218
G1 X125.071 Y136.618 E.02173
G1 X124.277 Y136.584 E.02491
G1 X123.55 Y136.479 E.02305
G1 X122.836 Y136.304 E.02303
G1 X122.143 Y136.061 E.02305
G1 X121.422 Y135.724 E.02493
G1 X120.766 Y135.33 E.024
G1 X120.197 Y134.909 E.0222
G1 X119.668 Y134.436 E.02223
G1 X119.137 Y133.858 E.02465
G1 X118.702 Y133.277 E.02274
G1 X118.327 Y132.662 E.02259
G1 X118.011 Y132.015 E.02259
G1 X117.809 Y131.473 E.01812
G1 X102.025 Y131.458 E.49489
G1 X100.862 Y131.272 E.03692
G1 X99.773 Y130.9 E.03609
G1 X99.214 Y130.617 E.01964
G1 X98.686 Y130.292 E.01946
G1 X97.91 Y129.671 E.03117
G1 X96.956 Y128.569 E.04571
G1 X96.624 Y128.029 E.01985
G1 X96.335 Y127.455 E.02016
G1 X96.07 Y126.746 E.02372
G1 X95.88 Y125.989 E.02449
G1 X95.764 Y124.831 E.03647
G1 X95.766 Y79.62 E1.41759
G1 X95.808 Y78.975 E.02027
G1 X95.908 Y78.344 E.02001
G1 X96.304 Y77.094 E.04113
G1 X96.596 Y76.499 E.02077
G1 X96.943 Y75.929 E.02094
G1 X97.113 Y75.716 E.00854
M204 S1000
G1 X97.406 Y75.952 F10800
M204 S800
G1 F1200
G1 X97.851 Y75.399 E.02224
G1 X98.88 Y74.507 E.0427
G1 X99.4 Y74.188 E.01911
G1 X99.943 Y73.916 E.01907
G1 X100.614 Y73.666 E.02243
G1 X101.328 Y73.488 E.02307
G1 X102.416 Y73.379 E.0343
G1 X147.547 Y73.379 E1.41505
G1 X148.195 Y73.418 E.02033
M73 P1 R58
G1 X148.819 Y73.516 E.01984
G1 X149.997 Y73.889 E.03872
G1 X150.557 Y74.164 E.01956
G1 X151.105 Y74.498 E.02013
G1 X151.875 Y75.123 E.03107
G1 X152.712 Y76.093 E.04018
G1 X153.052 Y76.641 E.02021
G1 X153.329 Y77.194 E.01942
G1 X153.696 Y78.303 E.0366
G1 X153.808 Y78.948 E.02054
G1 X153.854 Y79.532 E.01837
G1 X153.858 Y124.839 E1.42058
G1 X153.819 Y125.452 E.01924
G1 X153.722 Y126.057 E.01923
G1 X153.351 Y127.232 E.03862
G1 X153.07 Y127.804 E.01998
G1 X152.742 Y128.341 E.01974
G1 X152.15 Y129.078 E.02963
G1 X151.223 Y129.894 E.03872
G1 X150.579 Y130.3 E.02386
G1 X149.964 Y130.601 E.02146
G1 X148.99 Y130.921 E.03216
G1 X148.268 Y131.05 E.02297
G1 X147.659 Y131.094 E.01917
G1 X131.91 Y131.097 E.49379
G1 X131.726 Y131.661 E.01857
G1 X131.411 Y132.353 E.02387
G1 X131.02 Y133.014 E.02407
G1 X130.558 Y133.636 E.02428
G1 X130.019 Y134.214 E.02479
G1 X129.293 Y134.824 E.02973
G1 X128.422 Y135.38 E.03241
G1 X127.724 Y135.708 E.02416
G1 X127.089 Y135.932 E.02112
G1 X126.398 Y136.105 E.02232
G1 X125.733 Y136.204 E.02107
G1 X125.06 Y136.241 E.02116
G1 X124.322 Y136.209 E.02315
G1 X123.613 Y136.107 E.02246
G1 X122.952 Y135.945 E.02133
G1 X122.293 Y135.715 E.02187
G1 X121.591 Y135.387 E.02432
G1 X120.983 Y135.022 E.02223
G1 X120.428 Y134.611 E.02163
G1 X119.927 Y134.162 E.02111
G1 X119.433 Y133.624 E.0229
G1 X119.009 Y133.058 E.02215
G1 X118.654 Y132.474 E.02146
G1 X118.354 Y131.858 E.02146
G1 X118.072 Y131.096 E.02547
G1 X102.069 Y131.083 E.50175
G1 X100.968 Y130.91 E.03495
G1 X99.931 Y130.557 E.03434
G1 X99.405 Y130.292 E.01848
G1 X98.893 Y129.977 E.01883
G1 X98.16 Y129.387 E.02951
G1 X97.269 Y128.358 E.04269
G1 X96.95 Y127.839 E.01911
G1 X96.677 Y127.295 E.01907
G1 X96.428 Y126.625 E.02243
G1 X96.249 Y125.911 E.02307
G1 X96.141 Y124.822 E.0343
G1 X96.142 Y79.637 E1.41674
G1 X96.181 Y79.025 E.01924
G1 X96.278 Y78.418 E.01929
G1 X96.648 Y77.247 E.03849
G1 X96.93 Y76.673 E.02005
G1 X97.258 Y76.136 E.01974
G1 X97.369 Y75.998 E.00553
M204 S1000
G1 X97.661 Y76.234 F10800
M204 S800
G1 F1200
G1 X98.134 Y75.649 E.02359
G1 X99.091 Y74.82 E.0397
G1 X99.576 Y74.521 E.01786
G1 X100.103 Y74.258 E.01847
G1 X100.735 Y74.023 E.02113
G1 X101.405 Y73.857 E.02166
G1 X102.426 Y73.756 E.03215
G1 X147.542 Y73.756 E1.41459
G1 X148.145 Y73.792 E.01895
G1 X148.747 Y73.887 E.0191
G1 X149.843 Y74.234 E.03607
G1 X150.383 Y74.499 E.01885
G1 X150.897 Y74.813 E.01891
G1 X151.623 Y75.405 E.02935
G1 X152.416 Y76.327 E.03814
G1 X152.719 Y76.818 E.01808
M73 Q1 S58
G1 X152.976 Y77.326 E.01786
G1 X153.333 Y78.408 E.03571
G1 X153.433 Y78.986 E.01841
G1 X153.477 Y79.54 E.0174
G1 X153.481 Y124.822 E1.41979
G1 X153.445 Y125.402 E.01821
G1 X153.352 Y125.984 E.0185
G1 X153.006 Y127.079 E.03599
G1 X152.743 Y127.615 E.01871
G1 X152.426 Y128.134 E.01907
G1 X151.867 Y128.828 E.02796
G1 X150.986 Y129.6 E.03673
G1 X150.404 Y129.966 E.02154
G1 X149.834 Y130.247 E.01992
G1 X148.885 Y130.558 E.03132
G1 X148.231 Y130.674 E.02082
G1 X147.652 Y130.717 E.01822
G1 X131.635 Y130.72 E.50218
G1 X131.379 Y131.514 E.02616
G1 X131.072 Y132.188 E.02321
G1 X130.711 Y132.798 E.02221
G1 X130.274 Y133.386 E.02298
G1 X129.751 Y133.948 E.02408
G1 X129.06 Y134.527 E.02825
G1 X128.25 Y135.044 E.03013
G1 X127.572 Y135.362 E.02348
G1 X126.972 Y135.574 E.01995
G1 X126.333 Y135.733 E.02064
G1 X125.687 Y135.829 E.0205
G1 X125.049 Y135.864 E.02004
G1 X124.366 Y135.834 E.02143
G1 X123.693 Y135.738 E.02131
G1 X123.067 Y135.585 E.0202
G1 X122.444 Y135.369 E.02067
G1 X121.759 Y135.049 E.02371
G1 X121.199 Y134.713 E.02047
G1 X120.673 Y134.325 E.02051
G1 X120.185 Y133.887 E.02054
G1 X119.729 Y133.39 E.02115
G1 X119.317 Y132.84 E.02156
G1 X118.981 Y132.286 E.02031
G1 X118.697 Y131.702 E.02035
G1 X118.46 Y131.06 E.02147
G1 X118.376 Y130.719 E.01099
G1 X102.112 Y130.709 E.50994
G1 X101.073 Y130.547 E.03297
G1 X100.089 Y130.215 E.03257
G1 X99.582 Y129.959 E.0178
G1 X99.101 Y129.663 E.0177
G1 X98.41 Y129.105 E.02786
G1 X97.582 Y128.147 E.03969
G1 X97.283 Y127.662 E.01786
G1 X97.019 Y127.136 E.01847
G1 X96.785 Y126.504 E.02113
G1 X96.619 Y125.833 E.02165
G1 X96.518 Y124.813 E.03215
G1 X96.519 Y79.655 E1.4159
G1 X96.555 Y79.075 E.01821
G1 X96.648 Y78.491 E.01856
G1 X96.993 Y77.4 E.03586
G1 X97.257 Y76.862 E.01878
G1 X97.624 Y76.281 E.02155
M204 S1000
G1 X97.916 Y76.517 F10800
M204 S800
G1 F1200
G1 X98.416 Y75.899 E.02494
G1 X99.302 Y75.133 E.03672
G1 X99.767 Y74.847 E.01712
G1 X100.262 Y74.6 E.01735
G1 X100.855 Y74.381 E.01982
G1 X101.482 Y74.226 E.02024
G1 X102.435 Y74.133 E.03002
G1 X147.536 Y74.133 E1.41413
G1 X148.113 Y74.168 E.01812
G1 X148.673 Y74.257 E.01778
G1 X149.69 Y74.579 E.03343
G1 X150.209 Y74.833 E.01812
G1 X150.689 Y75.128 E.01767
G1 X151.372 Y75.686 E.02764
G1 X152.103 Y76.538 E.03521
G1 X152.386 Y76.995 E.01686
G1 X152.633 Y77.484 E.01715
G1 X152.97 Y78.512 E.03394
G1 X153.058 Y79.025 E.01632
G1 X153.1 Y79.547 E.01644
G1 X153.104 Y124.805 E1.41902
G1 X153.071 Y125.352 E.01717
G1 X152.982 Y125.911 E.01777
G1 X152.661 Y126.926 E.03336
G1 X152.409 Y127.441 E.01799
G1 X152.111 Y127.926 E.01785
G1 X151.584 Y128.578 E.02628
G1 X150.749 Y129.306 E.03473
G1 X150.228 Y129.633 E.01928
G1 X149.703 Y129.893 E.01837
G1 X148.78 Y130.196 E.03047
G1 X148.193 Y130.299 E.01868
G1 X147.644 Y130.34 E.01726
G1 X131.323 Y130.343 E.51175
G1 X131.261 Y130.651 E.00982
G1 X131.031 Y131.369 E.02364
G1 X130.741 Y132.005 E.02193
G1 X130.402 Y132.582 E.02097
G1 X129.991 Y133.137 E.02166
G1 X129.483 Y133.682 E.02337
G1 X128.828 Y134.229 E.02677
G1 X128.079 Y134.708 E.02786
G1 X127.421 Y135.017 E.02279
G1 X126.856 Y135.215 E.01877
M73 Q2 S58
G1 X126.268 Y135.361 E.01898
M73 P2 R58
G1 X125.657 Y135.453 E.01937
G1 X125.038 Y135.487 E.01946
G1 X124.392 Y135.458 E.02026
G1 X123.756 Y135.366 E.02014
G1 X123.166 Y135.221 E.01906
G1 X122.577 Y135.016 E.01953
G1 X121.945 Y134.721 E.02189
G1 X121.401 Y134.394 E.01988
G1 X120.905 Y134.027 E.01937
G1 X120.444 Y133.613 E.01942
G1 X120.013 Y133.143 E.02001
G1 X119.634 Y132.636 E.01983
G1 X119.308 Y132.098 E.01974
G1 X119.041 Y131.546 E.01921
G1 X118.818 Y130.941 E.02024
G1 X118.674 Y130.342 E.01929
G1 X102.155 Y130.334 E.51794
G1 X101.177 Y130.185 E.031
G1 X100.246 Y129.872 E.0308
G1 X99.773 Y129.633 E.01662
G1 X99.31 Y129.348 E.01705
G1 X98.66 Y128.822 E.0262
G1 X97.895 Y127.936 E.03671
G1 X97.608 Y127.472 E.01712
G1 X97.361 Y126.977 E.01735
G1 X97.142 Y126.383 E.01982
G1 X96.988 Y125.757 E.02024
G1 X96.895 Y124.804 E.03002
G1 X96.896 Y79.672 E1.41508
G1 X96.929 Y79.125 E.01717
G1 X97.018 Y78.564 E.01783
G1 X97.338 Y77.553 E.03323
G1 X97.591 Y77.036 E.01806
G1 X97.88 Y76.565 E.01731
M204 S1000
G1 X98.201 Y76.763 F10800
M204 S800
G1 F1200
G1 X98.698 Y76.15 E.02474
G1 X99.513 Y75.446 E.03375
G1 X99.957 Y75.172 E.01637
G1 X100.42 Y74.942 E.01622
G1 X100.975 Y74.739 E.01851
G1 X101.558 Y74.596 E.01883
G1 X102.444 Y74.51 E.0279
G1 X147.531 Y74.51 E1.41368
G1 X148.063 Y74.541 E.01672
G1 X148.6 Y74.627 E.01705
G1 X149.537 Y74.924 E.03081
G1 X150.019 Y75.16 E.01684
G1 X150.481 Y75.443 E.01699
G1 X151.097 Y75.945 E.02491
G1 X151.79 Y76.749 E.03329
G1 X152.061 Y77.186 E.01612
G1 X152.289 Y77.64 E.01594
G1 X152.601 Y78.589 E.03131
G1 X152.685 Y79.08 E.01561
G1 X152.723 Y79.57 E.01541
G1 X152.727 Y124.788 E1.4178
G1 X152.697 Y125.302 E.01612
G1 X152.612 Y125.838 E.01703
G1 X152.316 Y126.772 E.03072
G1 X152.074 Y127.267 E.01726
G1 X151.797 Y127.718 E.01661
G1 X151.302 Y128.327 E.0246
G1 X150.514 Y129.011 E.03273
G1 X150.052 Y129.299 E.01706
G1 X149.572 Y129.539 E.01681
G1 X148.676 Y129.833 E.02959
G1 X148.156 Y129.924 E.01655
G1 X147.637 Y129.963 E.01631
G1 X131.01 Y129.966 E.52132
G1 X130.898 Y130.548 E.01856
G1 X130.683 Y131.223 E.02223
G1 X130.402 Y131.84 E.02126
G1 X130.083 Y132.381 E.01972
G1 X129.708 Y132.888 E.01975
G1 X129.216 Y133.416 E.02265
G1 X128.596 Y133.932 E.02528
G1 X127.907 Y134.372 E.02562
G1 X127.269 Y134.671 E.0221
G1 X126.74 Y134.856 E.01758
G1 X126.203 Y134.99 E.01734
G1 X125.61 Y135.079 E.0188
G1 X125.027 Y135.11 E.01831
G1 X124.419 Y135.082 E.0191
